; generated by Slic3r 1.3.0 on 2019-08-09 at 17:00:08

; external perimeters extrusion width = 0.44mm (1.59mm^3/s)
; perimeters extrusion width = 0.56mm (4.14mm^3/s)
; infill extrusion width = 0.50mm (3.66mm^3/s)
; solid infill extrusion width = 0.56mm (2.07mm^3/s)
; top infill extrusion width = 0.56mm (1.55mm^3/s)
; support material extrusion width = 0.44mm (3.18mm^3/s)

M107
M190 S60 ; set bed temperature and wait for it to be reached
M104 S195 ; set temperature
G28 ; home all axes
G1 Z5 F5000 ; lift nozzle

; Filament gcode

M109 S195 ; set temperature and wait for it to be reached
G21 ; set units to millimeters
G90 ; use absolute coordinates
M82 ; use absolute distances for extrusion
G92 E0
G1 Z0.400 F7800.000
G1 E-2.00000 F2400.00000
G92 E0
G1 X79.613 Y70.550 F7800.000
G1 E2.00000 F2400.00000
G1 F1800
G1 X80.675 Y69.426 E2.18368
G1 X81.799 Y68.363 E2.36739
G1 X82.628 Y67.654 E2.49701
G1 X83.280 Y67.140 E2.59556
G1 X83.886 Y66.681 E2.68586
G1 X84.834 Y66.022 E2.82300
G1 X85.555 Y65.551 E2.92524
G1 X86.508 Y64.983 E3.05703
G1 X87.874 Y64.257 E3.24073
G1 X89.560 Y63.495 E3.46051
G1 X90.718 Y63.044 E3.60810
G1 X92.462 Y62.481 E3.82577
G1 X94.077 Y62.070 E4.02362
G1 X95.570 Y61.781 E4.20427
G1 X97.230 Y61.563 E4.40315
G1 X98.266 Y61.474 E4.52654
G1 X99.611 Y61.426 E4.68646
G1 X101.358 Y61.453 E4.89390
G1 X103.030 Y61.590 E5.09322
G1 X104.432 Y61.781 E5.26128
G1 X106.273 Y62.149 E5.48426
G1 X107.862 Y62.575 E5.67958
G1 X109.284 Y63.044 E5.85746
G1 X110.222 Y63.406 E5.97676
G1 X110.972 Y63.723 E6.07358
G1 X112.128 Y64.257 E6.22484
G1 X113.163 Y64.797 E6.36343
G1 X114.448 Y65.551 E6.54034
G1 X115.716 Y66.395 E6.72127
G1 X116.278 Y66.800 E6.80354
G1 X117.123 Y67.450 E6.93016
G1 X118.485 Y68.618 E7.14329
G1 X119.594 Y69.696 E7.32698
G1 X120.641 Y70.835 E7.51069
G1 X121.621 Y72.032 E7.69437
G1 X122.628 Y73.428 E7.89883
G1 X123.829 Y75.260 E8.15898
G1 X124.376 Y76.277 E8.29611
G1 X125.277 Y78.373 E8.56709
G1 X125.833 Y79.829 E8.75221
G1 X126.234 Y81.102 E8.91076
G1 X126.742 Y83.154 E9.16175
G1 X126.969 Y84.323 E9.30319
G1 X127.176 Y85.856 E9.48688
G1 X127.296 Y87.398 E9.67058
G1 X127.329 Y89.041 E9.86584
G1 X127.292 Y89.747 E9.94976
G1 X126.892 Y93.534 E10.40207
G1 X126.789 Y94.191 E10.48102
G1 X121.586 Y119.300 E13.52643
G1 X121.127 Y120.709 E13.70236
G1 X120.326 Y122.475 E13.93273
G1 X119.732 Y123.687 E14.09301
G1 X119.227 Y124.601 E14.21704
G1 X118.687 Y125.469 E14.33841
G1 X118.067 Y126.359 E14.46722
G1 X117.400 Y127.234 E14.59794
G1 X116.778 Y127.978 E14.71316
G1 X109.237 Y136.260 E16.04334
G1 X107.996 Y137.489 E16.25080
G1 X106.100 Y138.807 E16.52502
G1 X103.325 Y139.432 E16.86293
G1 X97.024 Y139.481 E17.61119
G1 X94.747 Y139.102 E17.88542
G1 X93.478 Y138.500 E18.05220
G1 X92.164 Y137.700 E18.23497
G1 X90.612 Y136.395 E18.47572
G1 X83.147 Y127.891 E19.81959
G1 X82.603 Y127.234 E19.92097
G1 X82.048 Y126.511 E20.02920
G1 X81.559 Y125.834 E20.12835
G1 X80.776 Y124.601 E20.30188
G1 X79.902 Y123.025 E20.51590
G1 X79.508 Y122.168 E20.62796
G1 X79.019 Y120.854 E20.79440
G1 X78.566 Y119.482 E20.96600
G1 X78.397 Y118.890 E21.03908
G1 X78.132 Y117.781 E21.17461
G1 X73.215 Y94.199 E24.03554
G1 X73.111 Y93.535 E24.11538
G1 X72.711 Y89.748 E24.56764
G1 X72.674 Y88.944 E24.66318
G1 X72.706 Y87.398 E24.84687
G1 X72.789 Y86.234 E24.98545
G1 X73.034 Y84.323 E25.21424
G1 X73.261 Y83.154 E25.35572
G1 X73.661 Y81.494 E25.55846
G1 X74.048 Y80.189 E25.72012
G1 X74.290 Y79.502 E25.80658
G1 X74.726 Y78.373 E25.95037
G1 X75.181 Y77.312 E26.08749
G1 X75.868 Y75.926 E26.27118
G1 X76.440 Y74.916 E26.40911
G1 X76.840 Y74.252 E26.50116
G1 X77.374 Y73.428 E26.61777
G1 X77.935 Y72.637 E26.73295
G1 X78.616 Y71.733 E26.86733
G1 X79.573 Y70.595 E27.04392
G1 E25.04392 F2400.00000
G92 E0
G1 X100.006 Y68.785 F7800.000
G1 E2.00000 F2400.00000
G1 F1800
G1 X101.131 Y68.817 E2.06629
G1 X102.256 Y68.913 E2.13283
G1 X103.375 Y69.072 E2.19937
G1 X103.718 Y69.141 E2.21996
G1 X96.285 Y69.141 E2.65774
G1 X95.520 Y69.295 E2.70368
G1 X94.743 Y69.497 E2.75097
G1 X105.259 Y69.497 E3.37035
G1 X105.576 Y69.579 E3.38961
G1 X106.426 Y69.853 E3.44218
G1 X93.577 Y69.853 E4.19893
G1 X92.617 Y70.209 E4.25925
G1 X107.386 Y70.209 E5.12913
G1 X108.220 Y70.565 E5.18255
G1 X91.782 Y70.565 E6.15069
G1 X91.032 Y70.920 E6.19962
G1 X108.971 Y70.920 E7.25619
G1 X109.652 Y71.276 E7.30147
G1 X90.350 Y71.276 E8.43833
G1 X89.743 Y71.632 E8.47978
G1 X110.260 Y71.632 E9.68815
G1 X110.839 Y71.988 E9.72818
G1 X89.164 Y71.988 E11.00477
G1 X88.637 Y72.344 E11.04219
G1 X111.365 Y72.344 E12.38080
G1 X111.864 Y72.700 E12.41687
G1 X88.139 Y72.700 E13.81419
G1 X87.672 Y73.055 E13.84877
G1 X112.331 Y73.055 E15.30112
G1 X112.770 Y73.411 E15.33441
G1 X87.233 Y73.411 E16.83848
G1 X86.817 Y73.767 E16.87072
G1 X113.186 Y73.767 E18.42380
G1 X113.580 Y74.123 E18.45508
G1 X86.422 Y74.123 E20.05461
G1 X86.051 Y74.479 E20.08490
G1 X113.952 Y74.479 E21.72816
G1 X114.311 Y74.835 E21.75796
G1 X85.691 Y74.835 E23.44361
G1 X85.360 Y75.190 E23.47225
G1 X114.643 Y75.190 E25.19695
G1 X114.974 Y75.546 E25.22560
G1 X85.028 Y75.546 E26.98934
G1 X84.731 Y75.902 E27.01664
G1 X115.271 Y75.902 E28.81537
G1 X115.567 Y76.258 E28.84262
G1 X84.435 Y76.258 E30.67619
G1 X84.157 Y76.614 E30.70281
G1 X115.846 Y76.614 E32.56921
G1 X116.109 Y76.970 E32.59528
G1 X83.893 Y76.970 E34.49268
G1 X83.630 Y77.325 E34.51874
G1 X116.372 Y77.325 E36.44714
G1 X116.606 Y77.681 E36.47223
G1 X83.396 Y77.681 E38.42821
G1 X83.163 Y78.037 E38.45327
G1 X116.840 Y78.037 E40.43672
G1 X117.064 Y78.393 E40.46150
G1 X82.938 Y78.393 E42.47140
G1 X82.733 Y78.749 E42.49560
G1 X117.270 Y78.749 E44.52970
G1 X117.475 Y79.105 E44.55390
G1 X82.528 Y79.105 E46.61219
G1 X82.337 Y79.460 E46.63597
G1 X117.666 Y79.460 E48.71674
G1 X117.845 Y79.816 E48.74021
G1 X82.157 Y79.816 E50.84211
G1 X81.978 Y80.172 E50.86558
G1 X118.025 Y80.172 E52.98861
G1 X118.186 Y80.528 E53.01163
G1 X81.816 Y80.528 E55.15368
G1 X81.662 Y80.884 E55.17654
G1 X118.341 Y80.884 E57.33683
G1 X118.496 Y81.240 E57.35968
G1 X81.507 Y81.240 E59.53821
G1 X81.371 Y81.595 E59.56064
G1 X118.631 Y81.595 E61.75515
G1 X118.763 Y81.951 E61.77749
G1 X81.240 Y81.951 E63.98748
G1 X81.108 Y82.307 E64.00982
G1 X118.894 Y82.307 E66.23529
G1 X119.007 Y82.663 E66.25727
G1 X80.996 Y82.663 E68.49600
G1 X80.887 Y83.019 E68.51792
G1 X119.116 Y83.019 E70.76948
G1 X119.225 Y83.375 E70.79140
G1 X80.778 Y83.375 E73.05581
G1 X80.686 Y83.730 E73.07745
G1 X119.316 Y83.730 E75.35263
G1 X119.404 Y84.086 E75.37421
G1 X80.599 Y84.086 E77.65968
G1 X80.512 Y84.442 E77.68126
G1 X119.491 Y84.442 E79.97702
G1 X119.563 Y84.798 E79.99840
G1 X80.440 Y84.798 E82.30265
G1 X80.373 Y85.154 E82.32396
G1 X119.629 Y85.154 E84.63601
G1 X119.695 Y85.510 E84.65733
G1 X80.307 Y85.510 E86.97718
G1 X80.253 Y85.865 E86.99837
G1 X119.749 Y85.865 E89.32456
G1 X119.795 Y86.221 E89.34569
G1 X80.208 Y86.221 E91.67725
G1 X80.162 Y86.577 E91.69838
G1 X119.840 Y86.577 E94.03530
G1 X119.877 Y86.933 E94.05637
G1 X80.126 Y86.933 E96.39759
G1 X80.100 Y87.289 E96.41860
G1 X119.902 Y87.289 E98.76279
G1 X119.927 Y87.645 E98.78380
G1 X80.075 Y87.645 E101.13095
G1 X80.056 Y88.000 E101.15194
G1 X119.947 Y88.000 E103.50140
G1 X119.952 Y88.356 E103.52236
G1 X80.051 Y88.356 E105.87242
G1 X80.046 Y88.712 E105.89338
G1 X119.957 Y88.712 E108.24402
G1 X119.960 Y89.068 E108.26498
G1 X80.043 Y89.068 E110.61597
G1 X80.058 Y89.424 E110.63694
G1 X119.945 Y89.424 E112.98615
G1 X119.930 Y89.780 E113.00712
G1 X80.073 Y89.780 E115.35455
G1 X80.088 Y90.135 E115.37553
G1 X119.914 Y90.135 E117.72117
G1 X119.880 Y90.491 E117.74222
G1 X80.122 Y90.491 E120.08386
G1 X80.158 Y90.847 E120.10492
G1 X119.845 Y90.847 E122.44239
G1 X119.810 Y91.203 E122.46345
G1 X80.193 Y91.203 E124.79675
G1 X80.244 Y91.559 E124.81792
G1 X119.758 Y91.559 E127.14519
G1 X119.703 Y91.915 E127.16641
G1 X80.300 Y91.915 E129.48710
G1 X80.356 Y92.270 E129.50831
G1 X119.647 Y92.270 E131.82242
G1 X119.585 Y92.626 E131.84369
G1 X80.417 Y92.626 E134.15054
G1 X80.498 Y92.982 E134.17203
G1 X119.505 Y92.982 E136.46943
G1 X119.431 Y93.338 E136.49084
G1 X80.572 Y93.338 E138.77953
G1 X80.646 Y93.694 E138.80093
G1 X119.357 Y93.694 E141.08090
G1 X119.283 Y94.050 E141.10231
G1 X80.720 Y94.050 E143.37355
G1 X80.794 Y94.405 E143.39496
G1 X119.209 Y94.405 E145.65749
G1 X119.135 Y94.761 E145.67889
G1 X80.868 Y94.761 E147.93270
G1 X80.942 Y95.117 E147.95411
G1 X119.061 Y95.117 E150.19919
G1 X118.987 Y95.473 E150.22060
G1 X81.016 Y95.473 E152.45697
G1 X81.090 Y95.829 E152.47837
G1 X118.913 Y95.829 E154.70602
G1 X118.839 Y96.185 E154.72742
G1 X81.164 Y96.185 E156.94635
G1 X81.238 Y96.540 E156.96775
G1 X118.764 Y96.540 E159.17793
G1 X118.690 Y96.896 E159.19934
G1 X81.312 Y96.896 E161.40077
G1 X81.386 Y97.252 E161.42217
G1 X118.615 Y97.252 E163.61485
G1 X118.541 Y97.608 E163.63626
G1 X81.461 Y97.608 E165.82016
G1 X81.535 Y97.964 E165.84157
G1 X118.466 Y97.964 E168.01670
G1 X118.392 Y98.320 E168.03812
G1 X81.610 Y98.320 E170.20448
G1 X81.684 Y98.675 E170.22589
G1 X118.317 Y98.675 E172.38348
G1 X118.243 Y99.031 E172.40489
G1 X81.759 Y99.031 E174.55372
G1 X81.833 Y99.387 E174.57513
G1 X118.169 Y99.387 E176.71521
G1 X118.095 Y99.743 E176.73662
G1 X81.907 Y99.743 E178.86795
G1 X81.982 Y100.099 E178.88936
G1 X118.021 Y100.099 E181.01194
G1 X117.947 Y100.455 E181.03335
G1 X82.056 Y100.455 E183.14717
G1 X82.131 Y100.810 E183.16858
G1 X117.872 Y100.810 E185.27366
G1 X117.798 Y101.166 E185.29507
G1 X82.205 Y101.166 E187.39141
G1 X82.279 Y101.522 E187.41282
G1 X117.724 Y101.522 E189.50042
G1 X117.650 Y101.878 E189.52183
G1 X82.353 Y101.878 E191.60069
G1 X82.427 Y102.234 E191.62210
G1 X117.576 Y102.234 E193.69222
G1 X117.501 Y102.590 E193.71363
G1 X82.502 Y102.590 E195.77502
G1 X82.576 Y102.945 E195.79643
G1 X117.427 Y102.945 E197.84907
G1 X117.353 Y103.301 E197.87048
G1 X82.650 Y103.301 E199.91439
G1 X82.724 Y103.657 E199.93579
G1 X117.279 Y103.657 E201.97096
G1 X117.205 Y104.013 E201.99237
G1 X82.798 Y104.013 E204.01880
G1 X82.873 Y104.369 E204.04021
G1 X117.131 Y104.369 E206.05790
G1 X117.056 Y104.725 E206.07930
G1 X82.947 Y104.725 E208.08825
G1 X83.021 Y105.080 E208.10966
G1 X116.982 Y105.080 E210.10987
G1 X116.908 Y105.436 E210.13128
G1 X83.095 Y105.436 E212.12275
G1 X83.169 Y105.792 E212.14416
G1 X116.834 Y105.792 E214.12689
G1 X116.760 Y106.148 E214.14830
G1 X83.244 Y106.148 E216.12230
G1 X83.318 Y106.504 E216.14371
G1 X116.685 Y106.504 E218.10896
G1 X116.611 Y106.860 E218.13037
G1 X83.392 Y106.860 E220.08688
G1 X83.466 Y107.215 E220.10829
G1 X116.537 Y107.215 E222.05607
G1 X116.463 Y107.571 E222.07748
G1 X83.540 Y107.571 E224.01652
G1 X83.615 Y107.927 E224.03792
G1 X116.389 Y107.927 E225.96822
G1 X116.315 Y108.283 E225.98963
G1 X83.689 Y108.283 E227.91119
G1 X83.762 Y108.639 E227.93259
G1 X116.240 Y108.639 E229.84545
G1 X116.166 Y108.995 E229.86686
G1 X83.836 Y108.995 E231.77102
G1 X83.909 Y109.350 E231.79242
G1 X116.092 Y109.350 E233.68789
G1 X116.018 Y109.706 E233.70930
G1 X83.983 Y109.706 E235.59608
G1 X84.056 Y110.062 E235.61748
G1 X115.944 Y110.062 E237.49556
G1 X115.869 Y110.418 E237.51697
G1 X84.129 Y110.418 E239.38636
G1 X84.203 Y110.774 E239.40776
G1 X115.796 Y110.774 E241.26848
G1 X115.722 Y111.130 E241.28988
G1 X84.276 Y111.130 E243.14192
G1 X84.350 Y111.485 E243.16332
G1 X115.648 Y111.485 E245.00669
G1 X115.574 Y111.841 E245.02810
G1 X84.423 Y111.841 E246.86279
G1 X84.496 Y112.197 E246.88419
G1 X115.500 Y112.197 E248.71020
G1 X115.426 Y112.553 E248.73161
G1 X84.570 Y112.553 E250.54895
G1 X84.644 Y112.909 E250.57035
G1 X115.352 Y112.909 E252.37901
G1 X115.278 Y113.265 E252.40042
G1 X84.717 Y113.265 E254.20034
G1 X84.791 Y113.620 E254.22175
G1 X115.204 Y113.620 E256.01295
G1 X115.129 Y113.976 E256.03436
G1 X84.865 Y113.976 E257.81682
G1 X84.939 Y114.332 E257.83823
G1 X115.055 Y114.332 E259.61196
G1 X114.981 Y114.688 E259.63337
G1 X85.013 Y114.688 E261.39838
G1 X85.087 Y115.044 E261.41978
G1 X114.906 Y115.044 E263.17606
G1 X114.832 Y115.400 E263.19747
G1 X85.161 Y115.400 E264.94502
G1 X85.235 Y115.755 E264.96642
G1 X114.758 Y115.755 E266.70524
G1 X114.683 Y116.111 E266.72665
G1 X85.308 Y116.111 E268.45678
G1 X85.389 Y116.467 E268.47828
G1 X114.608 Y116.467 E270.19918
G1 X114.530 Y116.823 E270.22063
G1 X85.475 Y116.823 E271.93186
G1 X85.567 Y117.179 E271.95350
G1 X114.436 Y117.179 E273.65381
G1 X114.328 Y117.535 E273.67571
G1 X85.675 Y117.535 E275.36330
G1 X85.783 Y117.890 E275.38520
G1 X114.220 Y117.890 E277.06007
G1 X114.098 Y118.246 E277.08222
G1 X85.904 Y118.246 E278.74275
G1 X86.038 Y118.602 E278.76515
G1 X113.964 Y118.602 E280.40990
G1 X113.830 Y118.958 E280.43229
G1 X86.172 Y118.958 E282.06127
G1 X86.332 Y119.314 E282.08425
G1 X113.670 Y119.314 E283.69438
G1 X113.509 Y119.670 E283.71739
G1 X86.493 Y119.670 E285.30852
G1 X86.668 Y120.025 E285.33186
G1 X113.335 Y120.025 E286.90247
G1 X113.145 Y120.381 E286.92623
G1 X86.858 Y120.381 E288.47443
G1 X87.049 Y120.737 E288.49822
G1 X112.954 Y120.737 E290.02393
G1 X112.732 Y121.093 E290.04861
G1 X87.270 Y121.093 E291.54825
G1 X87.491 Y121.449 E291.57293
G1 X112.511 Y121.449 E293.04651
G1 X112.267 Y121.805 E293.07194
G1 X87.736 Y121.805 E294.51673
G1 X87.991 Y122.160 E294.54251
G1 X112.012 Y122.160 E295.95726
G1 X111.740 Y122.516 E295.98363
G1 X88.263 Y122.516 E297.36638
G1 X88.555 Y122.872 E297.39349
G1 X111.448 Y122.872 E298.74184
G1 X111.143 Y123.228 E298.76946
G1 X88.860 Y123.228 E300.08184
G1 X89.193 Y123.584 E300.11055
G1 X110.809 Y123.584 E301.38367
G1 X110.461 Y123.940 E301.41298
G1 X89.541 Y123.940 E302.64512
G1 X89.921 Y124.295 E302.67577
G1 X110.081 Y124.295 E303.86315
G1 X109.678 Y124.651 E303.89483
G1 X90.324 Y124.651 E305.03471
G1 X90.758 Y125.007 E305.06774
G1 X109.245 Y125.007 E306.15655
G1 X108.768 Y125.363 E306.19160
G1 X91.235 Y125.363 E307.22422
G1 X91.738 Y125.719 E307.26051
G1 X108.265 Y125.719 E308.23387
G1 X107.692 Y126.075 E308.27356
G1 X92.310 Y126.075 E309.17952
G1 X92.942 Y126.430 E309.22220
G1 X107.061 Y126.430 E310.05378
G1 X106.355 Y126.786 E310.10034
G1 X93.648 Y126.786 E310.84877
G1 X94.465 Y127.142 E310.90128
G1 X105.538 Y127.142 E311.55342
G1 X104.811 Y127.416 E311.59916
G1 X104.539 Y127.498 E311.61585
G1 X95.463 Y127.498 E312.15042
G1 X96.129 Y127.700 E312.19140
G1 X96.789 Y127.854 E312.23131
G1 X103.214 Y127.854 E312.60972
G1 X102.920 Y127.922 E312.62748
G1 X101.954 Y128.082 E312.68514
G1 X100.980 Y128.178 E312.74281
G1 X99.998 Y128.210 E312.80065
G1 E310.80065 F2400.00000
G92 E0
G1 X95.715 Y129.533 F7800.000
G1 E2.00000 F2400.00000
G1 F1800
G1 X95.715 Y131.163 E2.19350
G1 X95.898 Y131.609 E2.25079
G1 X96.129 Y131.609 E2.27822
G1 X96.936 Y132.275 E2.40257
G1 X97.143 Y132.048 E2.43910
G1 X97.143 Y129.604 E2.72936
G1 X97.833 Y129.717 E2.81236
G1 X98.572 Y129.790 E2.90052
G1 X98.572 Y131.826 E3.14227
G1 X100.000 Y131.826 E3.31190
G1 X100.000 Y129.860 E3.54542
G1 X101.088 Y129.824 E3.67467
G1 X101.428 Y129.790 E3.71532
G1 X101.428 Y131.826 E3.95703
G1 X102.778 Y131.826 E4.11734
G1 X102.857 Y131.893 E4.12961
G1 X102.857 Y129.604 E4.40145
G1 X103.242 Y129.540 E4.44785
G1 X104.285 Y129.297 E4.57502
G1 X104.285 Y131.136 E4.79344
G1 Z0.600 F7800.000
G1 E2.79344 F2400.00000
G92 E0
G1 X114.211 Y119.704 F7800.000
G1 E2.00000 F2400.00000
G1 F2400
G1 X114.211 Y118.754 E2.03137
G1 X113.811 Y119.638 E2.06339
G1 X113.811 Y120.522 E2.09259
G1 X113.525 Y121.055 E2.11257
G1 X113.410 Y121.240 E2.11976
G1 X113.410 Y120.205 E2.15394
G1 X113.189 Y120.348 E2.16263
G1 X113.338 Y120.615 E2.17272
G1 X113.010 Y121.141 E2.19320
G1 X113.010 Y121.884 E2.21772
G1 X112.610 Y122.448 E2.24055
G1 X112.610 Y121.785 E2.26243
G1 X112.407 Y122.112 E2.27513
G1 X112.209 Y122.109 E2.28164
G1 X112.209 Y122.974 E2.31022
G1 X111.809 Y123.462 E2.33105
G1 X111.809 Y122.844 E2.35146
G1 X111.409 Y123.326 E2.37215
G1 X111.409 Y123.900 E2.39109
G1 X111.044 Y124.290 E2.40874
G1 X111.009 Y124.322 E2.41032
G1 X111.009 Y123.736 E2.42967
G1 X110.758 Y123.707 E2.43800
G1 X110.704 Y124.070 E2.45012
G1 X110.608 Y124.160 E2.45445
G1 X110.608 Y124.697 E2.47219
G1 X110.298 Y124.988 E2.48624
G1 X110.208 Y125.062 E2.49007
G1 X110.208 Y124.535 E2.50747
G1 X109.808 Y124.883 E2.52498
