;FLAVOR:Marlin
;TIME:2543
;Filament used: 0.865888m
;Layer height: 0.2
;Generated with Cura_SteamEngine 4.0.0
M140 S60
M105
M190 S60
M104 S200
M105
M109 S200
M82 ;absolute extrusion mode
G28 ;Home
G1 Z15.0 F6000 ;Move the platform down 15mm
;Prime the extruder
G92 E0
G1 F200 E3
G92 E0
G92 E0
G1 F1500 E-6.5
;LAYER_COUNT:85
;LAYER:0
M107
G0 F3600 X96.519 Y66.415 Z0.3
;TYPE:SKIRT
G1 F1500 E0
G1 F1800 X96.735 Y66.137 E0.00662
G1 X97.742 Y64.962 E0.03573
G1 X97.996 Y64.694 E0.04268
G1 X99.74 Y63.038 E0.08792
G1 X99.942 Y62.86 E0.09298
G1 X117.879 Y48.216 E0.52855
G1 X117.991 Y48.129 E0.53122
G1 X119.937 Y46.664 E0.57704
G1 X120.334 Y46.404 E0.58596
G1 X121.879 Y45.533 E0.61933
G1 X122.285 Y45.336 E0.62781
G1 X123.839 Y44.701 E0.65939
G1 X124.184 Y44.58 E0.66627
G1 X125.244 Y44.268 E0.68705
G1 X125.604 Y44.182 E0.69402
G1 X127.285 Y43.87 E0.72618
G1 X127.734 Y43.816 E0.73468
G1 X129.498 Y43.714 E0.76792
G1 X129.961 Y43.717 E0.77663
G1 X131.694 Y43.84 E0.80931
G1 X132.156 Y43.903 E0.81808
G1 X133.957 Y44.269 E0.85265
G1 X134.426 Y44.398 E0.8618
G1 X136.194 Y45.015 E0.89703
G1 X136.626 Y45.198 E0.90585
G1 X138.154 Y45.967 E0.93803
G1 X138.55 Y46.199 E0.94666
G1 X140.042 Y47.206 E0.98052
G1 X140.411 Y47.492 E0.9893
G1 X141.739 Y48.665 E1.02263
G1 X142.007 Y48.927 E1.02968
G1 X142.709 Y49.691 E1.0492
G1 X142.939 Y49.969 E1.05599
G1 X143.999 Y51.384 E1.08924
G1 X144.254 Y51.774 E1.09801
G1 X145.124 Y53.317 E1.13133
G1 X145.322 Y53.726 E1.13988
G1 X145.967 Y55.308 E1.17201
G1 X146.114 Y55.748 E1.18074
G1 X146.578 Y57.505 E1.21492
G1 X146.668 Y57.972 E1.22387
G1 X146.895 Y59.765 E1.25787
G1 X146.924 Y60.239 E1.2668
G1 X146.913 Y62.078 E1.30139
G1 X146.879 Y62.551 E1.31031
G1 X146.635 Y64.309 E1.3437
G1 X146.532 Y64.799 E1.35312
G1 X145.963 Y66.799 E1.39223
G1 X145.821 Y67.203 E1.40029
G1 X145.369 Y68.284 E1.42233
G1 X145.25 Y68.54 E1.42764
G1 X134.258 Y89.934 E1.88008
G1 X134.173 Y90.09 E1.88342
G1 X132.962 Y92.186 E1.92896
G1 X132.739 Y92.527 E1.93662
G1 X131.492 Y94.212 E1.97605
G1 X131.233 Y94.523 E1.98367
G1 X129.812 Y96.049 E2.02289
G1 X129.557 Y96.297 E2.02958
G1 X128.338 Y97.371 E2.06014
G1 X128.055 Y97.596 E2.06694
G1 X126.318 Y98.841 E2.10714
G1 X125.978 Y99.057 E2.11472
G1 X124.163 Y100.072 E2.15383
G1 X123.845 Y100.23 E2.16051
G1 X122.343 Y100.885 E2.19134
G1 X122.045 Y100.999 E2.19734
G1 X120.513 Y101.511 E2.22772
G1 X120.225 Y101.594 E2.23336
G1 X118.696 Y101.967 E2.26297
G1 X118.39 Y102.028 E2.26884
G1 X116.815 Y102.27 E2.29881
G1 X116.47 Y102.306 E2.30533
G1 X114.39 Y102.423 E2.34452
G1 X113.978 Y102.423 E2.35227
G1 X111.789 Y102.295 E2.39352
G1 X111.331 Y102.238 E2.4022
G1 X108.768 Y101.754 E2.45126
G1 X108.376 Y101.657 E2.45886
G1 X106.831 Y101.181 E2.48927
G1 X106.496 Y101.06 E2.49597
G1 X104.578 Y100.254 E2.53511
G1 X104.255 Y100.099 E2.54185
G1 X102.839 Y99.33 E2.57216
G1 X102.58 Y99.175 E2.57783
G1 X101.247 Y98.299 E2.60784
G1 X100.956 Y98.086 E2.61462
G1 X99.299 Y96.742 E2.65475
G1 X98.958 Y96.427 E2.66349
G1 X97.109 Y94.483 E2.71395
G1 X96.848 Y94.175 E2.72155
G1 X95.923 Y92.953 E2.75038
G1 X95.727 Y92.667 E2.7569
G1 X94.634 Y90.891 E2.79613
G1 X94.418 Y90.482 E2.80483
G1 X93.292 Y87.982 E2.8564
G1 X93.141 Y87.587 E2.86436
G1 X92.655 Y86.047 E2.89473
G1 X92.578 Y85.762 E2.90029
G1 X92.243 Y84.289 E2.9287
G1 X92.181 Y83.943 E2.93531
G1 X91.917 Y81.856 E2.97488
G1 X91.889 Y81.455 E2.98245
G1 X91.859 Y79.324 E3.02254
G1 X91.877 Y78.913 E3.03027
G1 X92.091 Y76.785 E3.0705
G1 X92.146 Y76.424 E3.07737
G1 X92.474 Y74.82 E3.10817
G1 X92.562 Y74.476 E3.11485
G1 X93.176 Y72.493 E3.1539
G1 X93.297 Y72.161 E3.16054
G1 X93.91 Y70.705 E3.19026
G1 X94.062 Y70.388 E3.19687
G1 X95.073 Y68.521 E3.23681
G1 X95.29 Y68.17 E3.24457
G1 X96.519 Y66.415 E3.28488
G0 F3600 X96.847 Y66.644
G1 F1800 X97.038 Y66.398 E3.29074
G1 X98.045 Y65.223 E3.31984
G1 X98.272 Y64.984 E3.32604
G1 X100.016 Y63.328 E3.37128
G1 X100.195 Y63.17 E3.37577
G1 X118.132 Y48.526 E3.81134
G1 X118.231 Y48.448 E3.81372
G1 X120.177 Y46.983 E3.85953
G1 X120.531 Y46.752 E3.86749
G1 X122.076 Y45.881 E3.90085
G1 X122.437 Y45.707 E3.90839
G1 X123.991 Y45.072 E3.93996
G1 X124.297 Y44.964 E3.94607
G1 X125.357 Y44.652 E3.96685
G1 X125.677 Y44.576 E3.97304
G1 X127.358 Y44.264 E4.0052
G1 X127.757 Y44.215 E4.01276
G1 X129.521 Y44.113 E4.046
G1 X129.933 Y44.116 E4.05375
G1 X131.666 Y44.239 E4.08643
G1 X132.076 Y44.295 E4.09421
G1 X133.877 Y44.661 E4.12878
G1 X134.294 Y44.776 E4.13692
G1 X136.062 Y45.393 E4.17215
G1 X136.447 Y45.556 E4.18001
G1 X137.975 Y46.325 E4.21219
G1 X138.326 Y46.531 E4.21984
G1 X139.818 Y47.538 E4.2537
G1 X140.146 Y47.792 E4.26151
G1 X141.474 Y48.965 E4.29484
G1 X141.712 Y49.198 E4.3011
G1 X142.414 Y49.962 E4.32062
G1 X142.619 Y50.208 E4.32664
G1 X143.679 Y51.623 E4.3599
G1 X143.905 Y51.97 E4.36769
G1 X144.775 Y53.513 E4.40101
G1 X144.951 Y53.877 E4.40861
G1 X145.596 Y55.459 E4.44075
G1 X145.727 Y55.85 E4.44851
G1 X146.191 Y57.607 E4.48269
G1 X146.272 Y58.022 E4.49064
G1 X146.499 Y59.815 E4.52464
G1 X146.524 Y60.236 E4.53257
G1 X146.513 Y62.075 E4.56717
G1 X146.483 Y62.496 E4.57511
G1 X146.239 Y64.254 E4.60849
G1 X146.147 Y64.69 E4.61687
G1 X145.578 Y66.69 E4.65599
G1 X145.452 Y67.048 E4.66313
G1 X145 Y68.129 E4.68517
G1 X144.894 Y68.357 E4.6899
G1 X133.902 Y89.751 E5.14234
G1 X133.827 Y89.89 E5.14531
G1 X132.616 Y91.986 E5.19085
G1 X132.417 Y92.289 E5.19766
G1 X131.17 Y93.974 E5.2371
G1 X130.94 Y94.251 E5.24387
G1 X129.519 Y95.777 E5.28309
G1 X129.292 Y95.997 E5.28904
G1 X128.073 Y97.071 E5.3196
G1 X127.822 Y97.271 E5.32563
G1 X126.085 Y98.516 E5.36583
G1 X125.783 Y98.708 E5.37257
G1 X123.968 Y99.723 E5.41168
G1 X123.685 Y99.863 E5.41762
G1 X122.183 Y100.518 E5.44845
G1 X121.918 Y100.62 E5.45379
G1 X120.386 Y101.132 E5.48417
G1 X120.13 Y101.206 E5.48918
G1 X118.601 Y101.579 E5.51879
G1 X118.329 Y101.633 E5.52401
G1 X116.754 Y101.875 E5.55398
G1 X116.448 Y101.907 E5.55977
G1 X114.368 Y102.024 E5.59896
G1 X114.001 Y102.024 E5.60586
G1 X111.812 Y101.896 E5.64711
G1 X111.405 Y101.845 E5.65482
G1 X108.842 Y101.361 E5.70388
G1 X108.494 Y101.275 E5.71063
G1 X106.949 Y100.799 E5.74104
G1 X106.651 Y100.691 E5.747
G1 X104.733 Y99.885 E5.78614
G1 X104.446 Y99.747 E5.79213
G1 X103.03 Y98.978 E5.82244
G1 X102.8 Y98.84 E5.82748
G1 X101.467 Y97.964 E5.85749
G1 X101.208 Y97.775 E5.86352
G1 X99.551 Y96.431 E5.90365
G1 X99.248 Y96.151 E5.91141
G1 X97.399 Y94.207 E5.96188
G1 X97.167 Y93.933 E5.96863
G1 X96.242 Y92.711 E5.99746
G1 X96.068 Y92.457 E6.00325
G1 X94.975 Y90.681 E6.04248
G1 X94.782 Y90.318 E6.05021
G1 X93.656 Y87.818 E6.10179
G1 X93.522 Y87.467 E6.10886
G1 X93.036 Y85.927 E6.13923
G1 X92.968 Y85.674 E6.14416
G1 X92.633 Y84.201 E6.17258
G1 X92.578 Y83.893 E6.17846
G1 X92.314 Y81.806 E6.21803
G1 X92.289 Y81.449 E6.22476
G1 X92.259 Y79.318 E6.26485
G1 X92.275 Y78.953 E6.27172
G1 X92.489 Y76.825 E6.31196
G1 X92.538 Y76.504 E6.31806
G1 X92.866 Y74.9 E6.34886
G1 X92.944 Y74.595 E6.35478
G1 X93.558 Y72.612 E6.39383
G1 X93.666 Y72.316 E6.39976
G1 X94.279 Y70.86 E6.42947
G1 X94.414 Y70.578 E6.43535
G1 X95.425 Y68.711 E6.47529
G1 X95.618 Y68.399 E6.48219
G1 X96.847 Y66.644 E6.5225
G1 F1500 E0.0225
;MESH:mic_bottom.stl
G0 F3600 X99.252 Y67.675
G0 X100.261 Y68.47
G0 X118.778 Y76.579
G0 X119.674 Y76.791
G0 X120.594 Y76.798
G0 X121.492 Y76.6
G0 X122.329 Y76.207
G0 X122.915 Y75.747
G0 X123.686 Y74.953
G0 X123.602 Y74.9
;TYPE:WALL-INNER
G1 F1500 E6.5225
G1 F1800 X123.825 Y74.5 E6.53111
G1 X124.003 Y74.08 E6.53969
G1 X124.133 Y73.641 E6.5483
G1 X124.214 Y73.192 E6.55689
G1 X124.243 Y72.736 E6.56548
G1 X124.22 Y72.28 E6.57407
G1 X124.147 Y71.829 E6.58266
G1 X124.024 Y71.387 E6.59129
G1 X123.852 Y70.965 E6.59987
G1 X123.634 Y70.563 E6.60847
G1 X123.373 Y70.187 E6.61708
G1 X123.07 Y69.843 E6.6257
G1 X122.731 Y69.537 E6.63429
G1 X122.361 Y69.268 E6.6429
G1 X121.963 Y69.045 E6.65148
G1 X121.541 Y68.866 E6.6601
G1 X121.103 Y68.737 E6.66869
G1 X120.653 Y68.656 E6.67729
G1 X120.198 Y68.627 E6.68587
G1 X119.741 Y68.65 E6.69447
G1 X119.29 Y68.723 E6.70307
G1 X118.849 Y68.846 E6.71168
G1 X118.427 Y69.018 E6.72025
G1 X118.024 Y69.236 E6.72887
G1 X117.649 Y69.497 E6.73746
G1 X117.306 Y69.8 E6.74607
G1 X116.998 Y70.137 E6.75466
G1 X116.73 Y70.508 E6.76327
G1 X116.506 Y70.908 E6.77189
G1 X116.328 Y71.329 E6.78049
G1 X116.198 Y71.767 E6.78909
G1 X116.117 Y72.217 E6.79769
G1 X116.089 Y72.672 E6.80626
G1 X116.11 Y73.127 E6.81483
G1 X116.184 Y73.58 E6.82346
G1 X116.307 Y74.021 E6.83208
G1 X116.479 Y74.443 E6.84065
G1 X116.697 Y74.845 E6.84925
G1 X116.959 Y75.221 E6.85787
G1 X117.261 Y75.564 E6.86647
G1 X117.6 Y75.872 E6.87508
G1 X117.97 Y76.14 E6.88368
G1 X118.37 Y76.364 E6.8923
G1 X118.791 Y76.542 E6.9009
G1 X119.229 Y76.671 E6.90949
G1 X119.678 Y76.752 E6.91807
G1 X120.134 Y76.781 E6.92666
G1 X120.59 Y76.759 E6.93525
G1 X121.041 Y76.685 E6.94385
G1 X121.48 Y76.563 E6.95242
G1 X121.905 Y76.391 E6.96104
G1 X122.308 Y76.173 E6.96966
G1 X122.683 Y75.91 E6.97828
G1 X123.026 Y75.61 E6.98685
G1 X123.333 Y75.27 E6.99547
G1 X123.602 Y74.9 E7.00407
G0 F3600 X123.686 Y74.953
G0 X130.226 Y88.355
G0 X130.315 Y88.399
G1 F1800 X130.202 Y88.638 E7.00905
G1 X129.628 Y89.628 E7.03057
G1 X129.062 Y90.489 E7.04995
G1 X128.454 Y91.307 E7.06913
G1 X127.791 Y92.103 E7.08861
G1 X127.094 Y92.848 E7.1078
G1 X126.343 Y93.567 E7.12736
G1 X125.572 Y94.224 E7.14641
G1 X124.744 Y94.851 E7.16595
G1 X123.892 Y95.425 E7.18528
G1 X123.017 Y95.945 E7.20442
G1 X122.103 Y96.422 E7.22382
G1 X121.157 Y96.846 E7.24332
G1 X120.218 Y97.207 E7.26224
G1 X119.218 Y97.526 E7.28198
G1 X118.225 Y97.783 E7.30128
G1 X117.23 Y97.982 E7.32037
G1 X116.21 Y98.125 E7.33974
G1 X115.184 Y98.21 E7.35911
G1 X114.156 Y98.239 E7.37845
G1 X113.11 Y98.207 E7.39814
G1 X112.117 Y98.121 E7.41688
G1 X111.087 Y97.973 E7.43646
G1 X110.073 Y97.767 E7.45592
G1 X109.096 Y97.511 E7.47492
G1 X108.102 Y97.189 E7.49457
G1 X107.142 Y96.817 E7.51394
G1 X106.213 Y96.396 E7.53313
G1 X105.306 Y95.919 E7.5524
G1 X104.427 Y95.394 E7.57166
G1 X103.569 Y94.811 E7.59118
G1 X102.766 Y94.198 E7.61018
G1 X101.971 Y93.515 E7.62989
G1 X101.236 Y92.807 E7.64909
G1 X100.53 Y92.048 E7.66859
G1 X99.886 Y91.268 E7.68762
G1 X99.268 Y90.431 E7.70719
G1 X98.715 Y89.582 E7.72625
G1 X98.197 Y88.682 E7.74578
G1 X97.732 Y87.754 E7.7653
G1 X97.327 Y86.821 E7.78444
G1 X96.977 Y85.867 E7.80355
G1 X96.676 Y84.878 E7.823
G1 X96.432 Y83.875 E7.84242
G1 X96.246 Y82.873 E7.86159
G1 X96.118 Y81.846 E7.88105
G1 X96.048 Y80.821 E7.90038
G1 X96.034 Y79.815 E7.9193
G1 X96.081 Y78.754 E7.93928
G1 X96.183 Y77.753 E7.95821
G1 X96.345 Y76.73 E7.97769
G1 X96.559 Y75.746 E7.99663
G1 X96.842 Y74.723 E8.0166
G1 X97.169 Y73.762 E8.0357
G1 X97.554 Y72.809 E8.05503
G1 X97.982 Y71.9 E8.07393
G1 X98.488 Y70.967 E8.09389
G1 X99.01 Y70.122 E8.11258
G1 X99.606 Y69.268 E8.13217
G1 X100.246 Y68.458 E8.15158
G1 X100.92 Y67.693 E8.17076
G1 X101.644 Y66.96 E8.19014
G1 X102.483 Y66.203 E8.2114
G1 X102.708 Y66.031 E8.21673
G1 X115.015 Y55.993 E8.51547
G1 X121.136 Y50.978 E8.66432
G1 X121.888 Y50.4 E8.68216
G1 X122.59 Y49.925 E8.6981
G1 X123.329 Y49.492 E8.71421
G1 X124.111 Y49.101 E8.73066
G1 X124.89 Y48.773 E8.74656
G1 X125.717 Y48.485 E8.76303
G1 X126.538 Y48.26 E8.77905
G1 X127.397 Y48.084 E8.79554
G1 X128.236 Y47.969 E8.81147
G1 X129.088 Y47.907 E8.82754
G1 X129.956 Y47.901 E8.84387
G1 X130.819 Y47.953 E8.86013
G1 X131.667 Y48.058 E8.8762
G1 X132.514 Y48.222 E8.89243
G1 X133.358 Y48.442 E8.90884
G1 X134.159 Y48.709 E8.92472
G1 X134.96 Y49.035 E8.94099
G1 X135.729 Y49.408 E8.95706
G1 X136.495 Y49.844 E8.97364
G1 X137.199 Y50.308 E8.9895
G1 X137.894 Y50.834 E9.0059
G1 X138.539 Y51.393 E9.02195
G1 X139.157 Y52.003 E9.03829
G1 X139.719 Y52.637 E9.05423
G1 X140.26 Y53.332 E9.07079
G1 X140.73 Y54.026 E9.08656
G1 X141.16 Y54.759 E9.10254
G1 X141.557 Y55.552 E9.11923
G1 X141.887 Y56.335 E9.13521
G1 X142.173 Y57.155 E9.15155
G1 X142.401 Y57.991 E9.16785
G1 X142.574 Y58.836 E9.18407
G1 X142.691 Y59.681 E9.20012
G1 X142.751 Y60.528 E9.21609
G1 X142.757 Y61.396 E9.23242
G1 X142.706 Y62.252 E9.24855
G1 X142.601 Y63.102 E9.26466
G1 X142.436 Y63.955 E9.281
G1 X142.216 Y64.799 E9.29741
G1 X141.946 Y65.609 E9.31347
G1 X141.547 Y66.572 E9.33308
G1 X130.315 Y88.399 E9.79483
G0 F3600 X130.674 Y88.576
;TYPE:WALL-OUTER
G1 F1800 X130.553 Y88.831 E9.80014
G1 X129.97 Y89.835 E9.82197
G1 X129.393 Y90.713 E9.84174
G1 X128.767 Y91.556 E9.86149
G1 X128.091 Y92.368 E9.88136
G1 X127.371 Y93.137 E9.90118
G1 X126.62 Y93.856 E9.92074
G1 X125.814 Y94.543 E9.94066
G1 X124.984 Y95.172 E9.96025
G1 X124.106 Y95.763 E9.98016
G1 X123.202 Y96.3 E9.99993
G1 X122.28 Y96.781 E10.0195
G1 X121.322 Y97.211 E10.03925
G1 X120.34 Y97.588 E10.05904
G1 X119.335 Y97.909 E10.07888
G1 X118.315 Y98.173 E10.0987
G1 X117.293 Y98.377 E10.1183
G1 X116.247 Y98.524 E10.13817
G1 X115.21 Y98.61 E10.15775
G1 X114.155 Y98.639 E10.1776
G1 X113.098 Y98.607 E10.19749
G1 X112.062 Y98.517 E10.21705
G1 X111.019 Y98.367 E10.23687
G1 X109.984 Y98.157 E10.25674
G1 X108.977 Y97.893 E10.27632
G1 X107.979 Y97.57 E10.29605
G1 X106.99 Y97.187 E10.316
G1 X106.034 Y96.753 E10.33575
G1 X105.115 Y96.27 E10.35528
G1 X104.203 Y95.725 E10.37527
G1 X103.335 Y95.136 E10.395
G1 X102.508 Y94.504 E10.41458
G1 X101.71 Y93.819 E10.43436
G1 X100.948 Y93.085 E10.45426
G1 X100.237 Y92.321 E10.47389
G1 X99.571 Y91.515 E10.49356
G1 X98.941 Y90.661 E10.51352
G1 X98.368 Y89.782 E10.53326
G1 X97.85 Y88.882 E10.55279
G1 X97.374 Y87.933 E10.57276
G1 X96.96 Y86.98 E10.59231
G1 X96.594 Y85.984 E10.61227
G1 X96.289 Y84.979 E10.63203
G1 X96.043 Y83.97 E10.65156
G1 X95.85 Y82.927 E10.67151
G1 X95.721 Y81.896 E10.69106
G1 X95.648 Y80.837 E10.71103
G1 X95.634 Y79.797 E10.73059
G1 X95.681 Y78.736 E10.75057
G1 X95.786 Y77.702 E10.77012
G1 X95.952 Y76.654 E10.79008
G1 X96.173 Y75.639 E10.80962
G1 X96.456 Y74.616 E10.82958
G1 X96.79 Y73.633 E10.84911
G1 X97.183 Y72.659 E10.86887
G1 X97.63 Y71.709 E10.88862
G1 X98.136 Y70.776 E10.90858
G1 X98.682 Y69.893 E10.92811
G1 X99.283 Y69.032 E10.94786
G1 X99.94 Y68.199 E10.96782
G1 X100.627 Y67.42 E10.98736
G1 X101.365 Y66.673 E11.00711
G1 X102.229 Y65.894 E11.02899
G1 X102.46 Y65.717 E11.03447
G1 X114.762 Y55.683 E11.33309
G1 X120.892 Y50.661 E11.48215
G1 X121.649 Y50.079 E11.50011
G1 X122.378 Y49.586 E11.51667
G1 X123.144 Y49.137 E11.53337
G1 X123.943 Y48.737 E11.55018
G1 X124.749 Y48.398 E11.56663
G1 X125.593 Y48.104 E11.58344
G1 X126.449 Y47.87 E11.60013
G1 X127.32 Y47.691 E11.61686
G1 X128.2 Y47.57 E11.63357
G1 X129.072 Y47.507 E11.65001
G1 X129.962 Y47.501 E11.66675
G1 X130.86 Y47.555 E11.68367
G1 X131.733 Y47.663 E11.70022
G1 X132.598 Y47.83 E11.71679
G1 X133.464 Y48.056 E11.73363
G1 X134.31 Y48.338 E11.7504
G1 X135.119 Y48.667 E11.76683
G1 X135.917 Y49.054 E11.78351
G1 X136.699 Y49.499 E11.80044
G1 X137.428 Y49.98 E11.81687
G1 X138.146 Y50.523 E11.8338
G1 X138.816 Y51.104 E11.85048
G1 X139.438 Y51.718 E11.86692
G1 X140.035 Y52.391 E11.88385
G1 X140.576 Y53.086 E11.90041
G1 X141.069 Y53.814 E11.91695
G1 X141.518 Y54.58 E11.93365
G1 X141.921 Y55.384 E11.95057
G1 X142.26 Y56.189 E11.967
G1 X142.556 Y57.04 E11.98395
G1 X142.79 Y57.895 E12.00062
G1 X142.968 Y58.764 E12.01731
G1 X143.089 Y59.642 E12.03398
G1 X143.151 Y60.513 E12.05041
G1 X143.157 Y61.402 E12.06713
G1 X143.103 Y62.301 E12.08407
G1 X142.996 Y63.168 E12.1005
G1 X142.828 Y64.039 E12.11719
G1 X142.602 Y64.905 E12.13403
G1 X142.32 Y65.751 E12.1508
G1 X141.988 Y66.565 E12.16734
G1 X141.903 Y66.755 E12.17125
G1 X130.674 Y88.576 E12.63288
G0 F3600 X130.589 Y88.756
G0 X130.138 Y88.542
G0 X123.7 Y74.927
G0 X123.264 Y74.684
G1 F1800 X123.465 Y74.324 E12.64063
G1 X123.626 Y73.945 E12.64838
G1 X123.743 Y73.549 E12.65615
G1 X123.816 Y73.144 E12.66389
G1 X123.842 Y72.733 E12.67163
G1 X123.822 Y72.322 E12.67937
G1 X123.756 Y71.915 E12.68713
G1 X123.645 Y71.517 E12.6949
G1 X123.49 Y71.136 E12.70264
G1 X123.293 Y70.773 E12.71041
G1 X123.058 Y70.434 E12.71817
G1 X122.785 Y70.125 E12.72592
G1 X122.479 Y69.848 E12.73369
G1 X122.145 Y69.606 E12.74145
G1 X121.786 Y69.405 E12.74918
G1 X121.406 Y69.243 E12.75696
G1 X121.011 Y69.127 E12.7647
G1 X120.605 Y69.054 E12.77246
G1 X120.195 Y69.028 E12.78019
G1 X119.783 Y69.048 E12.78795
