; generated by Slic3r 1.3.0 on 2019-08-07 at 00:26:21

; external perimeters extrusion width = 0.44mm (1.59mm^3/s)
; perimeters extrusion width = 0.56mm (4.14mm^3/s)
; infill extrusion width = 0.50mm (3.66mm^3/s)
; solid infill extrusion width = 0.56mm (2.07mm^3/s)
; top infill extrusion width = 0.56mm (1.55mm^3/s)
; support material extrusion width = 0.44mm (3.18mm^3/s)

M107
M190 S60 ; set bed temperature and wait for it to be reached
M104 S195 ; set temperature
G28 ; home all axes
G1 Z5 F5000 ; lift nozzle

; Filament gcode

M109 S195 ; set temperature and wait for it to be reached
G21 ; set units to millimeters
G90 ; use absolute coordinates
M82 ; use absolute distances for extrusion
G92 E0
G1 Z0.400 F7800.000
G1 E-2.00000 F2400.00000
G92 E0
G1 X86.067 Y42.586 F7800.000
G1 E2.00000 F2400.00000
G1 F1800
G1 X86.871 Y41.238 E2.18638
G1 X87.379 Y40.576 E2.28545
G1 X88.877 Y39.148 E2.53126
G1 X89.598 Y38.647 E2.63553
G1 X91.608 Y37.700 E2.89946
G1 X92.443 Y37.466 E3.00237
G1 X94.575 Y37.224 E3.25730
G1 X95.435 Y37.265 E3.35954
G1 X96.503 Y37.402 E3.48737
G1 X124.934 Y43.405 E6.93849
G1 X125.676 Y43.591 E7.02928
G1 X126.888 Y44.038 E7.18271
G1 X127.300 Y44.237 E7.23707
G1 X128.501 Y44.980 E7.40477
G1 X128.866 Y45.264 E7.45972
G1 X129.883 Y46.240 E7.62710
G1 X130.174 Y46.586 E7.68084
G1 X130.916 Y47.665 E7.83635
G1 X131.146 Y48.081 E7.89277
G1 X131.630 Y49.178 E8.03513
G1 X131.777 Y49.613 E8.08974
G1 X132.097 Y51.102 E8.27063
G1 X132.184 Y51.980 E8.37535
G1 X132.216 Y52.637 E8.45357
G1 X132.210 Y147.664 E19.73937
G1 X132.071 Y149.025 E19.90192
G1 X131.888 Y149.909 E20.00909
G1 X131.343 Y151.500 E20.20879
G1 X131.135 Y151.924 E20.26486
G1 X130.436 Y153.053 E20.42263
G1 X130.137 Y153.443 E20.48101
G1 X129.100 Y154.521 E20.65869
G1 X128.709 Y154.846 E20.71906
G1 X127.387 Y155.704 E20.90623
G1 X126.937 Y155.926 E20.96582
G1 X125.541 Y156.430 E21.14207
G1 X124.839 Y156.596 E21.22782
G1 X96.262 Y162.632 E24.69665
G1 X94.620 Y162.773 E24.89226
G1 X93.771 Y162.740 E24.99317
G1 X91.638 Y162.306 E25.25168
G1 X90.832 Y161.999 E25.35415
G1 X89.247 Y161.136 E25.56856
G1 X88.826 Y160.826 E25.63059
G1 X87.877 Y159.980 E25.78163
G1 X87.530 Y159.605 E25.84233
G1 X86.618 Y158.359 E26.02565
G1 X86.146 Y157.528 E26.13918
G1 X85.712 Y156.610 E26.25971
G1 X72.927 Y123.191 E30.50931
G1 X72.243 Y121.332 E30.74451
G1 X72.059 Y120.750 E30.81705
G1 X71.501 Y118.632 E31.07718
G1 X68.118 Y103.056 E32.97019
G1 X68.004 Y102.352 E33.05490
G1 X67.827 Y100.716 E33.25029
G1 X67.827 Y99.274 E33.42160
G1 X68.004 Y97.638 E33.61700
G1 X68.112 Y96.962 E33.69835
G1 X71.705 Y80.077 E35.74858
G1 X71.823 Y79.607 E35.80619
G1 X72.294 Y77.982 E36.00704
G1 X72.484 Y77.419 E36.07766
G1 X85.619 Y43.609 E40.38553
G1 X86.043 Y42.640 E40.51103
G1 E38.51103 F2400.00000
G92 E0
G1 X108.723 Y130.347 F7800.000
G1 E2.00000 F2400.00000
G1 F1800
G1 X109.422 Y131.309 E2.14128
G1 X109.860 Y132.415 E2.28256
G1 X110.009 Y133.596 E2.42384
G1 X109.860 Y134.776 E2.56512
G1 X109.422 Y135.882 E2.70640
G1 X108.723 Y136.844 E2.84768
G1 X107.806 Y137.603 E2.98896
G1 X106.730 Y138.109 E3.13024
G1 X105.561 Y138.332 E3.27152
G1 X104.374 Y138.257 E3.41280
G1 X103.243 Y137.890 E3.55408
G1 X102.238 Y137.252 E3.69536
G1 X101.424 Y136.385 E3.83664
G1 X100.851 Y135.343 E3.97792
G1 X100.555 Y134.190 E4.11920
G1 X100.555 Y133.001 E4.26048
G1 X100.851 Y131.849 E4.40176
G1 X101.424 Y130.806 E4.54304
G1 X102.238 Y129.939 E4.68432
G1 X103.243 Y129.302 E4.82560
G1 X104.374 Y128.934 E4.96688
G1 X105.562 Y128.859 E5.10824
G1 X106.730 Y129.082 E5.24944
G1 X107.806 Y129.589 E5.39072
G1 X108.676 Y130.309 E5.52488
G1 X108.723 Y130.347 F7800.000
G1 E3.52488 F2400.00000
G92 E0
G1 X111.316 Y134.648 F7800.000
G1 E2.00000 F2400.00000
G1 F1800
G1 X111.662 Y135.076 E2.06544
G1 X114.458 Y137.962 E2.54268
G1 X117.445 Y140.607 E3.01651
G1 X120.169 Y142.890 E3.43862
G1 X121.436 Y144.026 E3.64075
G1 X122.568 Y145.218 E3.83592
G1 X123.277 Y146.228 E3.98252
G1 X123.491 Y146.673 E4.04117
G1 X123.626 Y147.131 E4.09786
G1 X123.655 Y147.540 E4.14655
G1 X123.570 Y147.950 E4.19626
G1 X123.483 Y148.082 E4.21505
G1 X123.345 Y148.172 E4.23461
G1 X123.194 Y148.208 E4.25301
G1 X123.049 Y148.215 E4.27024
G1 X122.469 Y148.127 E4.33990
G1 X121.887 Y147.931 E4.41291
G1 X121.303 Y147.659 E4.48937
G1 X120.051 Y146.900 E4.66328
G1 X118.867 Y146.025 E4.83819
G1 X117.047 Y144.492 E5.12078
G1 X113.425 Y141.260 E5.69730
G1 X111.444 Y139.701 E5.99665
G1 X109.878 Y138.711 E6.21671
G1 X109.116 Y138.372 E6.31570
G1 X109.772 Y137.830 E6.41677
G1 X110.683 Y136.575 E6.60091
G1 X111.254 Y135.134 E6.78505
G1 X111.308 Y134.707 E6.83612
G1 X110.681 Y133.221 F7800.000
G1 F1800
G1 X110.979 Y133.094 E6.87457
G1 X112.197 Y134.603 E7.10485
G1 X114.952 Y137.445 E7.57501
G1 X117.911 Y140.066 E8.04444
G1 X120.637 Y142.350 E8.46682
G1 X121.934 Y143.514 E8.67379
G1 X123.122 Y144.764 E8.87862
G1 X123.895 Y145.866 E9.03843
G1 X124.160 Y146.416 E9.11095
G1 X124.332 Y147.004 E9.18371
G1 X124.374 Y147.588 E9.25329
G1 X124.251 Y148.183 E9.32544
G1 X124.154 Y148.381 E9.35162
G1 X124.001 Y148.580 E9.38146
G1 X123.809 Y148.740 E9.41108
G1 X123.589 Y148.848 E9.44018
G1 X123.295 Y148.919 E9.47616
G1 X123.011 Y148.931 E9.50986
G1 X122.301 Y148.824 E9.59518
G1 X121.621 Y148.595 E9.68034
G1 X120.966 Y148.290 E9.76619
G1 X119.653 Y147.493 E9.94856
G1 X118.424 Y146.585 E10.13006
G1 X116.579 Y145.031 E10.41656
G1 X112.966 Y141.808 E10.99166
G1 X111.031 Y140.285 E11.28403
G1 X109.540 Y139.342 E11.49354
G1 X107.610 Y138.484 E11.74442
G1 X108.192 Y138.210 E11.82077
G1 X109.247 Y137.337 E11.98348
G1 X110.053 Y136.229 E12.14619
G1 X110.557 Y134.955 E12.30890
G1 X110.729 Y133.596 E12.47161
G1 X110.689 Y133.280 E12.50937
G1 E10.50937 F2400.00000
G92 E0
G1 X98.250 Y143.401 F7800.000
G1 E2.00000 F2400.00000
G1 F1800
G1 X97.795 Y144.514 E2.14279
G1 X97.323 Y146.040 E2.33254
G1 X96.962 Y147.572 E2.51945
G1 X96.516 Y149.993 E2.81185
G1 X96.023 Y152.317 E3.09393
G1 X95.637 Y153.353 E3.22519
G1 X95.431 Y153.702 E3.27338
G1 X95.182 Y153.981 E3.31779
G1 X94.922 Y154.150 E3.35461
G1 X94.655 Y154.225 E3.38752
G1 X94.396 Y154.215 E3.41832
G1 X94.105 Y154.104 E3.45534
G1 X94.025 Y154.046 E3.46715
G1 X93.941 Y153.955 E3.48182
G1 X93.672 Y153.483 E3.54634
G1 X93.507 Y152.944 E3.61326
G1 X93.413 Y152.345 E3.68529
G1 X93.380 Y150.907 E3.85604
G1 X93.500 Y149.452 E4.02943
G1 X94.451 Y143.218 E4.77838
G1 X95.982 Y143.668 E4.96780
G1 X97.342 Y143.668 E5.12942
G1 X98.193 Y143.418 E5.23465
G1 X99.451 Y141.919 F7800.000
G1 F1800
G1 X99.695 Y142.146 E5.27417
G1 X99.056 Y143.318 E5.43278
G1 X98.468 Y144.755 E5.61715
G1 X98.013 Y146.228 E5.80026
G1 X97.661 Y147.719 E5.98219
G1 X97.216 Y150.132 E6.27362
G1 X96.710 Y152.516 E6.56309
G1 X96.285 Y153.661 E6.70816
G1 X96.010 Y154.126 E6.77225
G1 X95.651 Y154.527 E6.83621
G1 X95.221 Y154.808 E6.89720
G1 X94.741 Y154.943 E6.95643
G1 X94.252 Y154.925 E7.01455
G1 X93.760 Y154.737 E7.07704
G1 X93.547 Y154.581 E7.10844
G1 X93.361 Y154.380 E7.14100
G1 X93.013 Y153.767 E7.22466
G1 X92.809 Y153.105 E7.30698
G1 X92.701 Y152.408 E7.39068
G1 X92.666 Y150.886 E7.57150
G1 X92.791 Y149.369 E7.75229
G1 X93.805 Y142.721 E8.55103
G1 X93.866 Y141.915 E8.64702
G1 X94.976 Y142.628 E8.80373
G1 X96.084 Y142.954 E8.94096
G1 X97.240 Y142.954 E9.07819
G1 X98.348 Y142.628 E9.21542
G1 X99.401 Y141.951 E9.36402
G1 E7.36402 F2400.00000
G92 E0
G1 X90.139 Y130.504 F7800.000
G1 E2.00000 F2400.00000
G1 F1800
G1 X89.446 Y129.804 E2.11697
G1 X86.351 Y126.916 E2.61969
G1 X87.209 Y126.932 E2.72161
G1 X88.985 Y126.669 E2.93473
G1 X90.903 Y126.188 E3.16963
G1 X90.507 Y127.051 E3.28236
G1 X90.139 Y128.487 E3.45852
G1 X90.139 Y130.444 E3.69096
G1 E1.69096 F2400.00000
G92 E0
G1 X92.433 Y124.839 F7800.000
G1 E2.00000 F2400.00000
G1 F1800
G1 X91.429 Y126.755 E2.25687
G1 X91.183 Y127.290 E2.32684
G1 X90.853 Y128.578 E2.48469
G1 X90.853 Y129.948 E2.64740
G1 X91.193 Y131.275 E2.81011
G1 X91.853 Y132.475 E2.97282
G1 X92.791 Y133.474 E3.13553
G1 X93.948 Y134.208 E3.29824
G1 X95.251 Y134.631 E3.46095
G1 X96.618 Y134.717 E3.62366
G1 X97.964 Y134.461 E3.78637
G1 X99.204 Y133.877 E3.94908
G1 X99.841 Y133.350 E4.04728
G1 X99.841 Y134.281 E4.15779
G1 X100.181 Y135.608 E4.32050
G1 X100.841 Y136.808 E4.48321
G1 X101.779 Y137.807 E4.64592
G1 X103.315 Y138.782 E4.86195
G1 X102.927 Y138.926 E4.91113
G1 X101.697 Y139.747 E5.08668
G1 X100.597 Y140.839 E5.27091
G1 X100.303 Y140.635 E5.31336
G1 X100.557 Y140.079 E5.38594
G1 X100.722 Y138.935 E5.52317
G1 X100.557 Y137.792 E5.66040
G1 X100.094 Y136.778 E5.79276
G1 X99.691 Y136.238 E5.87277
G1 X99.051 Y135.755 E5.96800
G1 X98.232 Y135.522 E6.06914
G1 X97.384 Y135.600 E6.17029
G1 X96.628 Y135.977 E6.27054
G1 X96.337 Y135.757 E6.31388
G1 X95.518 Y135.524 E6.41503
G1 X94.670 Y135.602 E6.51618
G1 X93.941 Y135.965 E6.61295
G1 X93.330 Y136.555 E6.71374
G1 X93.099 Y135.836 E6.80344
G1 X92.296 Y134.272 E7.01223
G1 X91.290 Y132.845 E7.21953
G1 X90.157 Y131.538 E7.42497
G1 X88.948 Y130.316 E7.62906
G1 X84.542 Y126.204 E8.34494
G1 X84.694 Y125.914 E8.38379
G1 X85.962 Y126.195 E8.53804
G1 X87.163 Y126.216 E8.68073
G1 X88.845 Y125.967 E8.88265
G1 X90.484 Y125.557 E9.08330
G1 X91.698 Y124.995 E9.24216
G1 X92.163 Y124.618 E9.31329
G1 X92.387 Y124.801 E9.34763
G1 X93.066 Y125.171 F7800.000
G1 F1800
G1 X96.796 Y118.057 E10.30159
G1 X96.969 Y117.778 E10.34058
G1 X97.454 Y117.293 E10.42205
G1 X98.081 Y116.974 E10.50556
G1 X98.741 Y116.869 E10.58493
G1 X99.467 Y116.972 E10.67202
G1 X100.096 Y117.293 E10.75592
G1 X100.593 Y117.790 E10.83943
G1 X100.913 Y118.417 E10.92294
G1 X101.018 Y119.080 E11.00267
G1 X101.018 Y129.288 E12.21499
G1 X100.872 Y130.443 E12.35326
G1 X100.434 Y131.549 E12.49454
G1 X99.735 Y132.511 E12.63582
G1 X98.818 Y133.269 E12.77710
G1 X97.742 Y133.776 E12.91838
G1 X96.573 Y133.999 E13.05966
G1 X95.386 Y133.924 E13.20094
G1 X94.254 Y133.557 E13.34222
G1 X93.250 Y132.919 E13.48350
G1 X92.436 Y132.052 E13.62478
G1 X91.863 Y131.010 E13.76606
G1 X91.597 Y129.974 E13.89305
G1 X91.567 Y129.857 E13.90734
G1 X91.567 Y128.668 E14.04862
G1 X91.859 Y127.530 E14.18816
G1 X92.070 Y127.070 E14.24829
G1 X93.038 Y125.224 E14.49578
G1 X92.851 Y124.834 F7800.000
G1 E12.49578 F2400.00000
G92 E0
G1 X85.202 Y105.733 F7800.000
G1 E2.00000 F2400.00000
G1 F1800
G1 X83.897 Y106.253 E2.16680
G1 X82.511 Y106.480 E2.33359
G1 X81.109 Y106.404 E2.50039
G1 X79.756 Y106.029 E2.66719
G1 X78.515 Y105.371 E2.83399
G1 X77.544 Y104.546 E2.98527
G1 X77.444 Y104.462 E3.00078
G1 X76.595 Y103.344 E3.16758
G1 X76.005 Y102.069 E3.33438
G1 X75.703 Y100.697 E3.50117
G1 X75.703 Y99.293 E3.66797
G1 X76.005 Y97.921 E3.83477
G1 X76.595 Y96.647 E4.00157
G1 X77.444 Y95.529 E4.16836
G1 X78.515 Y94.619 E4.33516
G1 X79.756 Y93.962 E4.50196
G1 X81.109 Y93.586 E4.66875
G1 X82.511 Y93.510 E4.83555
G1 X83.897 Y93.737 E5.00235
G1 X85.202 Y94.257 E5.16915
G1 X86.364 Y95.045 E5.33594
G1 X87.330 Y96.065 E5.50274
G1 X88.054 Y97.268 E5.66954
G1 X88.503 Y98.599 E5.83634
G1 X88.654 Y99.995 E6.00313
G1 X88.503 Y101.391 E6.16993
G1 X88.054 Y102.722 E6.33673
G1 X87.330 Y103.926 E6.50352
G1 X86.364 Y104.945 E6.67032
G1 X85.252 Y105.700 E6.82999
G1 X85.202 Y105.733 F7800.000
G1 E4.82999 F2400.00000
G92 E0
G1 X97.454 Y82.697 F7800.000
G1 E2.00000 F2400.00000
G1 F1800
G1 X96.969 Y82.212 E2.08147
G1 X96.796 Y81.933 E2.12046
G1 X92.070 Y72.921 E3.32905
G1 X91.859 Y72.461 E3.38918
G1 X91.567 Y71.323 E3.52871
G1 X91.567 Y70.133 E3.66999
G1 X91.863 Y68.981 E3.81127
G1 X92.436 Y67.938 E3.95255
G1 X93.250 Y67.071 E4.09383
G1 X94.254 Y66.434 E4.23511
G1 X95.386 Y66.066 E4.37639
G1 X96.573 Y65.992 E4.51767
G1 X97.742 Y66.214 E4.65895
G1 X98.818 Y66.721 E4.80023
G1 X99.735 Y67.479 E4.94151
G1 X100.434 Y68.442 E5.08279
G1 X100.872 Y69.548 E5.22407
G1 X101.018 Y70.703 E5.36234
G1 X101.018 Y80.910 E6.57467
G1 X100.913 Y81.573 E6.65439
G1 X100.593 Y82.200 E6.73790
G1 X100.096 Y82.697 E6.82141
G1 X99.470 Y83.016 E6.90492
G1 X98.775 Y83.126 E6.98843
G1 X98.081 Y83.016 E7.07194
G1 X97.508 Y82.724 E7.14833
G1 X97.454 Y82.697 F7800.000
G1 E5.14833 F2400.00000
G92 E0
G1 X103.243 Y70.689 F7800.000
G1 E2.00000 F2400.00000
G1 F1800
G1 X102.238 Y70.051 E2.14128
G1 X101.424 Y69.184 E2.28256
G1 X100.851 Y68.142 E2.42384
G1 X100.555 Y66.990 E2.56512
G1 X100.555 Y65.800 E2.70640
G1 X100.851 Y64.648 E2.84768
G1 X101.424 Y63.605 E2.98896
G1 X102.238 Y62.738 E3.13024
G1 X103.243 Y62.101 E3.27152
G1 X104.374 Y61.733 E3.41280
G1 X105.441 Y61.666 E3.53979
G1 X105.561 Y61.658 E3.55408
G1 X106.730 Y61.881 E3.69536
G1 X107.806 Y62.388 E3.83664
G1 X108.723 Y63.146 E3.97792
G1 X109.422 Y64.108 E4.11920
G1 X109.860 Y65.215 E4.26048
G1 X110.009 Y66.395 E4.40176
G1 X109.860 Y67.575 E4.54304
G1 X109.422 Y68.681 E4.68432
G1 X108.723 Y69.643 E4.82560
G1 X107.806 Y70.402 E4.96688
G1 X106.730 Y70.908 E5.10816
G1 X105.562 Y71.131 E5.24936
G1 X104.374 Y71.056 E5.39072
G1 X103.300 Y70.707 E5.52487
G1 X103.243 Y70.689 F7800.000
G1 E3.52487 F2400.00000
G92 E0
G1 X97.324 Y90.559 F7800.000
G1 E2.00000 F2400.00000
G1 F1800
G1 X94.514 Y90.552 E2.33368
G1 X94.513 Y87.409 E2.70698
G1 X94.485 Y85.311 E2.95620
G1 X94.156 Y80.709 E3.50419
G1 X94.491 Y80.613 E3.54556
G1 X95.555 Y82.642 E3.81765
G1 X95.842 Y83.106 E3.88239
G1 X96.604 Y83.867 E4.01030
G1 X97.634 Y84.392 E4.14754
G1 X98.775 Y84.572 E4.28479
G1 X99.916 Y84.392 E4.42204
G1 X100.946 Y83.867 E4.55928
G1 X101.763 Y83.050 E4.69653
G1 X102.288 Y82.020 E4.83377
G1 X102.446 Y81.023 E4.95372
G1 X102.446 Y71.932 E6.03342
G1 X104.104 Y72.471 E6.24051
G1 X105.652 Y72.568 E6.42473
G1 X106.870 Y72.335 E6.57195
G1 X106.400 Y73.454 E6.71601
G1 X105.767 Y75.459 E6.96571
G1 X105.311 Y77.496 E7.21372
G1 X105.009 Y79.495 E7.45381
G1 X104.817 Y81.505 E7.69357
G1 X104.658 Y85.441 E8.16145
G1 X104.649 Y88.847 E8.56592
G1 X104.676 Y94.820 E9.27534
G1 X104.641 Y100.008 E9.89152
G1 X104.667 Y101.237 E10.03753
G1 X104.673 Y105.165 E10.50404
G1 X104.646 Y111.143 E11.21403
G1 X104.655 Y114.549 E11.61855
G1 X104.814 Y118.486 E12.08639
G1 X105.005 Y120.495 E12.32617
G1 X105.308 Y122.494 E12.56629
G1 X105.764 Y124.531 E12.81421
G1 X106.396 Y126.536 E13.06382
G1 X106.866 Y127.654 E13.20789
G1 X105.652 Y127.423 E13.35464
G1 X104.104 Y127.520 E13.53886
G1 X102.446 Y128.059 E13.74594
G1 X102.446 Y118.968 E14.82565
G1 X102.288 Y117.970 E14.94559
G1 X101.763 Y116.940 E15.08284
G1 X100.946 Y116.123 E15.22008
G1 X99.903 Y115.592 E15.35912
G1 X98.729 Y115.425 E15.49994
G1 X97.634 Y115.599 E15.63165
G1 X96.604 Y116.123 E15.76890
G1 X95.843 Y116.885 E15.89681
G1 X95.555 Y117.348 E15.96155
G1 X94.540 Y119.283 E16.22109
G1 X94.208 Y119.193 E16.26196
G1 X94.266 Y117.995 E16.40440
G1 X94.559 Y114.609 E16.80807
G1 X94.581 Y113.444 E16.94648
G1 X94.505 Y109.438 E17.42231
G1 X97.324 Y109.432 E17.75711
G1 X98.306 Y107.641 E17.99966
G1 X98.566 Y106.501 E18.13849
G1 X98.271 Y105.205 E18.29644
G1 X97.440 Y104.162 E18.45481
G1 X96.765 Y103.837 E18.54377
G1 X97.054 Y102.569 E18.69819
G1 X96.758 Y101.271 E18.85635
G1 X95.928 Y100.230 E19.01451
G1 X95.441 Y99.995 E19.07868
G1 X95.928 Y99.761 E19.14285
G1 X96.758 Y98.720 E19.30101
G1 X97.054 Y97.421 E19.45917
G1 X96.765 Y96.154 E19.61359
G1 X97.440 Y95.829 E19.70256
G1 X98.271 Y94.786 E19.86092
G1 X98.566 Y93.489 E20.01888
G1 X98.306 Y92.349 E20.15771
G1 X97.353 Y90.611 E20.39313
G1 E18.39313 F2400.00000
G92 E0
G1 X90.380 Y73.378 F7800.000
G1 E2.00000 F2400.00000
G1 F1800
G1 X89.985 Y73.150 E2.05414
G1 X88.528 Y72.736 E2.23404
G1 X87.643 Y72.696 E2.33925
G1 X86.695 Y72.806 E2.45261
G1 X89.925 Y69.505 E3.00107
G1 X90.212 Y69.667 E3.04013
G1 X90.139 Y69.953 E3.07517
G1 X90.139 Y71.503 E3.25931
G1 X90.507 Y72.940 E3.43547
G1 X90.612 Y73.167 E3.46518
G1 X90.424 Y73.338 E3.49526
G1 E1.49526 F2400.00000
G92 E0
G1 X96.900 Y91.272 F7800.000
G1 E2.00000 F2400.00000
G1 F1800
G1 X93.800 Y91.265 E2.36819
G1 X93.799 Y87.414 E2.82554
G1 X93.771 Y85.341 E3.07174
G1 X93.406 Y80.226 E3.68088
G1 X93.196 Y78.460 E3.89200
G1 X92.828 Y76.958 E4.07567
G1 X92.487 Y76.217 E4.17256
G1 X92.019 Y75.534 E4.27087
G1 X90.905 Y74.507 E4.45087
G1 X89.705 Y73.812 E4.61555
G1 X88.413 Y73.446 E4.77503
G1 X87.668 Y73.412 E4.86355
G1 X86.936 Y73.497 E4.95113
