; generated by Slic3r 1.3.0 on 2019-08-08 at 12:08:17

; external perimeters extrusion width = 0.44mm (1.59mm^3/s)
; perimeters extrusion width = 0.56mm (4.14mm^3/s)
; infill extrusion width = 0.50mm (3.66mm^3/s)
; solid infill extrusion width = 0.56mm (2.07mm^3/s)
; top infill extrusion width = 0.56mm (1.55mm^3/s)
; support material extrusion width = 0.44mm (3.18mm^3/s)

M107
M190 S60 ; set bed temperature and wait for it to be reached
M104 S195 ; set temperature
G28 ; home all axes
G1 Z5 F5000 ; lift nozzle

; Filament gcode

M109 S195 ; set temperature and wait for it to be reached
G21 ; set units to millimeters
G90 ; use absolute coordinates
M82 ; use absolute distances for extrusion
G92 E0
G1 Z0.400 F7800.000
G1 E-2.00000 F2400.00000
G92 E0
G1 X82.493 Y22.066 F7800.000
G1 E2.00000 F2400.00000
G1 F1800
G1 X83.058 Y20.782 E2.16670
G1 X83.861 Y19.434 E2.35305
G1 X84.550 Y18.535 E2.48752
G1 X86.050 Y17.106 E2.73358
G1 X87.024 Y16.430 E2.87438
G1 X89.037 Y15.482 E3.13866
G1 X90.163 Y15.166 E3.27755
G1 X92.293 Y14.925 E3.53207
G1 X93.455 Y14.981 E3.67031
G1 X94.523 Y15.118 E3.79812
G1 X134.332 Y23.523 E8.63031
G1 X135.219 Y23.747 E8.73901
G1 X136.433 Y24.194 E8.89256
G1 X136.986 Y24.460 E8.96545
G1 X138.188 Y25.205 E9.13343
G1 X138.678 Y25.586 E9.20716
G1 X139.693 Y26.561 E9.37427
G1 X140.085 Y27.026 E9.44648
G1 X140.826 Y28.104 E9.60192
G1 X141.136 Y28.665 E9.67806
G1 X141.619 Y29.762 E9.82031
G1 X141.818 Y30.351 E9.89423
G1 X142.138 Y31.840 E10.07507
G1 X142.255 Y33.032 E10.21738
G1 X142.287 Y33.689 E10.29541
G1 X142.251 Y166.722 E26.09508
G1 X142.112 Y168.081 E26.25735
G1 X141.865 Y169.270 E26.40161
G1 X141.321 Y170.861 E26.60131
G1 X141.043 Y171.428 E26.67633
G1 X140.344 Y172.559 E26.83422
G1 X139.946 Y173.077 E26.91178
G1 X138.910 Y174.155 E27.08941
G1 X138.391 Y174.586 E27.16948
G1 X137.069 Y175.444 E27.35669
G1 X136.472 Y175.738 E27.43573
G1 X135.076 Y176.242 E27.61201
G1 X134.199 Y176.451 E27.71907
G1 X94.192 Y184.901 E32.57526
G1 X92.551 Y185.041 E32.77085
G1 X91.413 Y184.998 E32.90613
G1 X89.280 Y184.564 E33.16461
G1 X88.201 Y184.153 E33.30176
G1 X86.616 Y183.289 E33.51617
G1 X86.052 Y182.875 E33.59924
G1 X85.103 Y182.028 E33.75026
G1 X84.637 Y181.525 E33.83182
G1 X83.724 Y180.278 E34.01532
G1 X83.084 Y179.151 E34.16924
G1 X82.652 Y178.235 E34.28956
G1 X64.751 Y131.445 E40.23929
G1 X63.813 Y128.892 E40.56235
G1 X63.628 Y128.310 E40.63490
G1 X62.879 Y125.475 E40.98315
G1 X58.158 Y103.667 E43.63323
G1 X58.045 Y102.967 E43.71736
G1 X57.802 Y100.714 E43.98646
G1 X57.802 Y99.272 E44.15778
G1 X58.045 Y97.019 E44.42689
G1 X58.151 Y96.355 E44.50677
G1 X63.137 Y72.710 E47.37674
G1 X63.258 Y72.228 E47.43580
G1 X63.913 Y69.965 E47.71559
G1 X64.104 Y69.401 E47.78623
G1 X82.471 Y22.122 E53.81017
G1 E51.81017 F2400.00000
G92 E0
G1 X109.455 Y140.713 F7800.000
G1 E2.00000 F2400.00000
G1 F1800
G1 X110.985 Y141.447 E2.20151
G1 X112.043 Y142.322 E2.36455
G1 X112.286 Y142.555 E2.40458
G1 X113.089 Y143.660 E2.56678
G1 X113.259 Y143.951 E2.60681
G1 X113.762 Y145.220 E2.76900
G1 X113.845 Y145.547 E2.80903
G1 X114.017 Y146.902 E2.97123
G1 X114.006 Y147.239 E3.01125
G1 X113.835 Y148.594 E3.17345
G1 X113.733 Y148.915 E3.21348
G1 X113.227 Y150.191 E3.37646
G1 X112.240 Y151.570 E3.57799
G1 X110.933 Y152.656 E3.77975
G1 X109.390 Y153.376 E3.98199
G1 X107.724 Y153.679 E4.18314
G1 X106.353 Y153.593 E4.34624
G1 X106.019 Y153.547 E4.38627
G1 X104.720 Y153.125 E4.54847
G1 X104.412 Y152.989 E4.58849
G1 X103.259 Y152.257 E4.75069
G1 X103.000 Y152.041 E4.79071
G1 X102.065 Y151.046 E4.95291
G1 X101.876 Y150.767 E4.99294
G1 X101.218 Y149.570 E5.15514
G1 X101.113 Y149.250 E5.19517
G1 X100.772 Y147.921 E5.35809
G1 X100.761 Y146.224 E5.55963
G1 X101.181 Y144.579 E5.76126
G1 X101.910 Y143.237 E5.94266
G1 X102.116 Y142.969 E5.98281
G1 X103.051 Y141.973 E6.14501
G1 X103.322 Y141.773 E6.18504
G1 X104.481 Y141.038 E6.34808
G1 X106.089 Y140.502 E6.54931
G1 X106.426 Y140.476 E6.58954
G1 X107.788 Y140.390 E6.75157
G1 X109.396 Y140.701 E6.94613
G1 X109.455 Y140.713 F7800.000
G1 E4.94613 F2400.00000
G92 E0
G1 X115.461 Y147.122 F7800.000
G1 E2.00000 F2400.00000
G1 F1800
G1 X116.756 Y148.726 E2.24485
G1 X120.639 Y152.733 E2.90747
G1 X124.798 Y156.417 E3.56741
G1 X128.613 Y159.613 E4.15847
G1 X130.412 Y161.226 E4.44544
G1 X132.041 Y162.942 E4.72641
G1 X133.083 Y164.426 E4.94183
G1 X133.425 Y165.137 E5.03552
G1 X133.644 Y165.883 E5.12785
G1 X133.695 Y166.597 E5.21285
G1 X133.547 Y167.313 E5.29965
G1 X133.451 Y167.509 E5.32561
G1 X133.292 Y167.716 E5.35663
G1 X133.099 Y167.876 E5.38637
G1 X132.880 Y167.984 E5.41546
G1 X132.555 Y168.063 E5.45516
G1 X132.236 Y168.077 E5.49309
G1 X131.325 Y167.938 E5.60254
G1 X130.429 Y167.637 E5.71470
G1 X129.553 Y167.228 E5.82962
G1 X127.753 Y166.137 E6.07954
G1 X126.058 Y164.885 E6.32986
G1 X123.494 Y162.725 E6.72799
G1 X120.988 Y160.469 E7.12844
G1 X118.424 Y158.202 E7.53497
G1 X115.690 Y156.050 E7.94809
G1 X113.559 Y154.703 E8.24753
G1 X111.699 Y153.876 E8.48929
G1 X113.294 Y152.551 E8.73554
G1 X114.491 Y150.879 E8.97976
G1 X115.078 Y149.396 E9.16929
G1 X115.236 Y148.903 E9.23068
G1 X115.453 Y147.181 E9.43680
G1 E7.43680 F2400.00000
G92 E0
G1 X114.539 Y145.339 F7800.000
G1 E2.00000 F2400.00000
G1 F1800
G1 X114.837 Y145.212 E2.03845
G1 X117.291 Y148.252 E2.50254
G1 X121.133 Y152.216 E3.15809
G1 X125.264 Y155.876 E3.81363
G1 X129.081 Y159.073 E4.40495
G1 X130.910 Y160.714 E4.69676
G1 X132.595 Y162.488 E4.98738
G1 X133.701 Y164.064 E5.21602
G1 X134.094 Y164.880 E5.32359
G1 X134.351 Y165.756 E5.43197
G1 X134.415 Y166.645 E5.53786
G1 X134.228 Y167.546 E5.64710
G1 X134.061 Y167.887 E5.69223
G1 X133.810 Y168.214 E5.74123
G1 X133.491 Y168.480 E5.79052
G1 X133.124 Y168.660 E5.83910
G1 X132.655 Y168.773 E5.89640
G1 X132.197 Y168.793 E5.95078
G1 X131.156 Y168.635 E6.07589
G1 X130.164 Y168.302 E6.20019
G1 X129.215 Y167.859 E6.32450
G1 X127.355 Y166.731 E6.58289
G1 X125.615 Y165.446 E6.83978
G1 X123.025 Y163.264 E7.24200
G1 X120.512 Y161.002 E7.64348
G1 X117.966 Y158.750 E8.04721
G1 X115.277 Y156.634 E8.45353
G1 X113.221 Y155.335 E8.74241
G1 X111.020 Y154.356 E9.02852
G1 X109.739 Y154.007 E9.18619
G1 X111.319 Y153.263 E9.39358
G1 X112.767 Y152.061 E9.61708
G1 X113.859 Y150.535 E9.83995
G1 X114.406 Y149.155 E10.01621
G1 X114.536 Y148.748 E10.06692
G1 X114.719 Y147.294 E10.24100
G1 X114.732 Y146.868 E10.29170
G1 X114.546 Y145.398 E10.46762
G1 E8.46762 F2400.00000
G92 E0
G1 X101.232 Y142.627 F7800.000
G1 E2.00000 F2400.00000
G1 F1800
G1 X100.613 Y144.185 E2.19903
G1 X99.811 Y145.289 E2.36116
G1 X99.620 Y145.543 E2.39883
G1 X98.325 Y146.604 E2.59766
G1 X96.805 Y147.310 E2.79666
G1 X95.148 Y147.613 E2.99675
G1 X93.482 Y147.494 E3.19510
G1 X91.895 Y146.962 E3.39398
G1 X90.737 Y146.228 E3.55681
G1 X90.481 Y146.042 E3.59436
G1 X89.549 Y145.049 E3.75607
G1 X89.350 Y144.804 E3.79362
G1 X88.694 Y143.611 E3.95533
G1 X88.564 Y143.322 E3.99288
G1 X88.225 Y142.004 E4.15459
G1 X88.173 Y141.692 E4.19213
G1 X88.173 Y140.330 E4.35384
G1 X88.203 Y140.015 E4.39139
G1 X88.542 Y138.697 E4.55310
G1 X88.646 Y138.414 E4.58891
G1 X88.889 Y137.884 E4.65812
G1 X90.146 Y135.585 E4.96932
G1 X95.422 Y125.524 E6.31854
G1 X95.474 Y125.319 E6.34369
G1 X95.691 Y124.970 E6.39241
G1 X95.840 Y124.782 E6.42094
G1 X96.395 Y124.228 E6.51410
G1 X97.300 Y123.755 E6.63539
G1 X98.315 Y123.599 E6.75739
G1 X99.083 Y123.720 E6.84967
G1 X99.333 Y123.782 E6.88022
G1 X100.025 Y124.134 E6.97247
G1 X100.234 Y124.284 E7.00301
G1 X100.783 Y124.833 E7.09527
G1 X100.922 Y125.050 E7.12581
G1 X101.277 Y125.747 E7.21871
G1 X101.441 Y126.738 E7.33801
G1 X101.393 Y127.381 E7.41457
G1 X101.393 Y138.772 E8.76750
G1 X101.439 Y140.989 E9.03078
G1 X101.239 Y142.568 E9.21981
G1 X101.232 Y142.627 F7800.000
G1 E7.21981 F2400.00000
G92 E0
G1 X79.445 Y107.943 F7800.000
G1 E2.00000 F2400.00000
G1 F1800
G1 X79.110 Y108.118 E2.04491
G1 X77.595 Y108.722 E2.23852
G1 X77.228 Y108.812 E2.28343
G1 X75.619 Y109.076 E2.47704
G1 X75.241 Y109.076 E2.52195
G1 X73.609 Y108.987 E2.71614
G1 X71.676 Y108.461 E2.95406
G1 X69.904 Y107.524 E3.19213
G1 X68.379 Y106.218 E3.43059
G1 X67.392 Y104.920 E3.62420
G1 X67.177 Y104.609 E3.66911
G1 X66.493 Y103.129 E3.86272
G1 X66.359 Y102.776 E3.90764
G1 X66.008 Y101.184 E4.10124
G1 X65.963 Y100.808 E4.14615
G1 X65.963 Y99.178 E4.33976
G1 X66.008 Y98.803 E4.38467
G1 X66.359 Y97.211 E4.57827
G1 X66.493 Y96.857 E4.62319
G1 X67.177 Y95.378 E4.81680
G1 X67.392 Y95.066 E4.86171
G1 X68.381 Y93.766 E5.05574
G1 X69.903 Y92.463 E5.29370
G1 X71.676 Y91.525 E5.53186
G1 X73.609 Y90.999 E5.76978
G1 X75.241 Y90.911 E5.96397
G1 X75.619 Y90.911 E6.00889
G1 X77.228 Y91.174 E6.20249
G1 X77.595 Y91.265 E6.24741
G1 X79.110 Y91.868 E6.44101
G1 X79.445 Y92.044 E6.48592
G1 X80.794 Y92.959 E6.67953
G1 X81.077 Y93.209 E6.72444
G1 X82.198 Y94.393 E6.91804
G1 X82.413 Y94.704 E6.96296
G1 X83.256 Y96.106 E7.15731
G1 X83.908 Y98.000 E7.39519
G1 X84.130 Y99.993 E7.63334
G1 X83.909 Y101.985 E7.87135
G1 X83.253 Y103.885 E8.11010
G1 X82.413 Y105.282 E8.30371
G1 X82.198 Y105.594 E8.34863
G1 X81.077 Y106.777 E8.54223
G1 X80.794 Y107.028 E8.58714
G1 X79.494 Y107.909 E8.77362
G1 X79.445 Y107.943 F7800.000
G1 E6.77362 F2400.00000
G92 E0
G1 X69.312 Y108.100 F7800.000
G1 E2.00000 F2400.00000
G1 F1800
G1 X70.128 Y108.922 E2.13755
G1 X70.291 Y108.970 E2.15773
G1 X72.124 Y109.701 E2.39211
G1 X72.406 Y109.791 E2.42720
G1 X74.302 Y110.102 E2.65546
G1 X74.597 Y110.124 E2.69055
G1 X76.516 Y110.020 E2.91880
G1 X76.808 Y109.973 E2.95389
G1 X78.659 Y109.459 E3.18214
G1 X78.932 Y109.344 E3.21723
G1 X80.630 Y108.444 E3.44549
G1 X80.868 Y108.269 E3.48058
G1 X82.333 Y107.025 E3.70883
G1 X82.524 Y106.800 E3.74391
G1 X83.683 Y105.274 E3.97149
G1 X84.626 Y103.263 E4.23529
G1 X85.107 Y101.096 E4.49894
G1 X85.107 Y99.172 E4.72746
G1 X85.106 Y98.877 E4.76245
G1 X84.620 Y96.709 E5.02634
G1 X83.680 Y94.706 E5.28914
G1 X82.517 Y93.176 E5.51739
G1 X82.323 Y92.952 E5.55248
G1 X80.859 Y91.708 E5.78073
G1 X80.618 Y91.536 E5.81582
G1 X78.920 Y90.636 E6.04407
G1 X78.647 Y90.524 E6.07916
G1 X76.795 Y90.010 E6.30742
G1 X76.503 Y89.966 E6.34251
G1 X74.584 Y89.862 E6.57076
G1 X74.289 Y89.887 E6.60585
G1 X72.393 Y90.198 E6.83410
G1 X72.112 Y90.291 E6.86919
G1 X70.281 Y91.021 E7.10338
G1 X70.091 Y91.081 E7.12707
G1 X69.235 Y91.806 E7.26017
G1 X69.374 Y89.522 E7.53191
G1 X69.477 Y86.024 E7.94755
G1 X69.996 Y78.716 E8.81768
G1 X70.447 Y75.543 E9.19828
G1 X71.171 Y72.455 E9.57490
G1 X72.050 Y70.258 E9.85605
G1 X72.661 Y69.248 E9.99625
G1 X73.403 Y68.357 E10.13392
G1 X74.279 Y67.603 E10.27119
G1 X75.274 Y66.982 E10.41050
G1 X77.464 Y65.941 E10.69850
G1 X80.380 Y64.438 E11.08811
G1 X81.942 Y63.906 E11.28409
G1 X82.772 Y63.810 E11.38334
G1 X83.607 Y63.848 E11.48263
G1 X85.183 Y64.295 E11.67714
G1 X86.651 Y65.144 E11.87857
G1 X88.044 Y66.430 E12.10371
G1 X88.582 Y67.215 E12.21673
G1 X88.981 Y68.080 E12.32994
G1 X89.460 Y70.031 E12.56846
G1 X89.742 Y72.413 E12.85342
G1 X90.250 Y79.520 E13.69962
G1 X90.289 Y82.393 E14.04076
G1 X90.271 Y83.760 E14.20313
G1 X90.281 Y88.768 E14.79797
G1 X90.691 Y88.850 E14.84764
G1 X95.002 Y88.882 E15.35973
G1 X95.661 Y90.024 E15.51625
G1 X95.857 Y90.885 E15.62111
G1 X95.655 Y91.774 E15.72940
G1 X95.084 Y92.491 E15.83825
G1 X94.260 Y92.888 E15.94683
G1 X93.346 Y92.888 E16.05540
G1 X92.523 Y92.491 E16.16397
G1 X91.954 Y91.778 E16.27222
G1 X91.890 Y91.515 E16.30447
G1 X90.698 Y91.536 E16.44606
G1 X90.309 Y91.614 E16.49322
G1 X90.313 Y92.973 E16.65462
G1 X90.699 Y93.050 E16.70134
G1 X91.641 Y93.050 E16.81319
G1 X93.300 Y95.135 E17.12967
G1 X93.543 Y95.521 E17.18390
G1 X93.741 Y96.390 E17.28968
G1 X93.537 Y97.281 E17.39825
G1 X92.967 Y97.996 E17.50682
G1 X92.144 Y98.392 E17.61539
G1 X91.245 Y98.392 E17.72210
G1 X90.691 Y98.175 E17.79287
G1 X90.253 Y97.921 E17.85298
G1 X90.263 Y102.059 E18.34446
G1 X90.691 Y101.812 E18.40316
G1 X91.245 Y101.594 E18.47392
G1 X92.144 Y101.594 E18.58063
G1 X92.967 Y101.991 E18.68920
G1 X93.537 Y102.706 E18.79777
G1 X93.741 Y103.597 E18.90634
G1 X93.543 Y104.465 E19.01212
G1 X93.300 Y104.852 E19.06635
G1 X91.641 Y106.937 E19.38283
G1 X90.664 Y106.937 E19.49887
G1 X90.278 Y107.014 E19.54560
G1 X90.297 Y108.373 E19.70702
G1 X90.686 Y108.450 E19.75416
G1 X91.890 Y108.472 E19.89720
G1 X91.954 Y108.208 E19.92945
G1 X92.523 Y107.495 E20.03770
G1 X93.346 Y107.099 E20.14627
G1 X94.260 Y107.099 E20.25484
G1 X95.084 Y107.495 E20.36342
G1 X95.655 Y108.212 E20.47227
G1 X95.857 Y109.102 E20.58056
G1 X95.661 Y109.962 E20.68542
G1 X95.002 Y111.105 E20.84203
G1 X90.617 Y111.125 E21.36285
G1 X90.300 Y111.193 E21.40129
G1 X90.258 Y112.321 E21.53539
G1 X90.296 Y115.118 E21.86760
G1 X90.383 Y118.823 E22.30770
G1 X90.354 Y120.347 E22.48878
G1 X89.946 Y125.058 E23.05036
G1 X89.805 Y127.662 E23.36000
G1 X89.744 Y129.257 E23.54959
G1 X89.631 Y130.816 E23.73528
G1 X89.410 Y131.954 E23.87301
G1 X88.967 Y132.962 E24.00374
G1 X88.467 Y133.593 E24.09931
G1 X87.831 Y134.109 E24.19660
G1 X86.331 Y134.804 E24.39296
G1 X84.181 Y135.342 E24.65614
G1 X81.965 Y135.671 E24.92222
G1 X80.464 Y135.643 E25.10054
G1 X78.920 Y135.302 E25.28834
G1 X77.720 Y134.803 E25.44262
G1 X76.608 Y134.110 E25.59826
G1 X75.426 Y133.081 E25.78437
G1 X74.400 Y131.876 E25.97238
G1 X73.523 Y130.546 E26.16164
G1 X72.777 Y129.123 E26.35236
G1 X71.707 Y126.385 E26.70152
G1 X70.923 Y123.522 E27.05402
G1 X70.037 Y118.314 E27.68149
G1 X69.586 Y113.031 E28.31124
G1 X69.485 Y110.525 E28.60911
G1 X69.317 Y108.160 E28.89068
G1 X69.507 Y107.750 F7800.000
G1 E26.89068 F2400.00000
G92 E0
G1 X96.395 Y75.759 F7800.000
G1 E2.00000 F2400.00000
G1 F1800
G1 X95.840 Y75.204 E2.09316
G1 X95.691 Y75.016 E2.12168
G1 X95.499 Y74.708 E2.16483
G1 X88.888 Y62.099 E3.85565
G1 X88.646 Y61.573 E3.92445
G1 X88.542 Y61.290 E3.96026
G1 X88.203 Y59.971 E4.12197
G1 X88.173 Y59.656 E4.15951
G1 X88.173 Y58.295 E4.32122
G1 X88.225 Y57.983 E4.35877
G1 X88.564 Y56.664 E4.52048
G1 X88.694 Y56.376 E4.55803
G1 X89.350 Y55.183 E4.71974
G1 X89.549 Y54.938 E4.75729
G1 X90.481 Y53.945 E4.91900
G1 X90.737 Y53.759 E4.95655
G1 X91.895 Y53.024 E5.11938
G1 X93.475 Y52.495 E5.31730
G1 X95.157 Y52.374 E5.51756
G1 X96.804 Y52.676 E5.71652
G1 X98.325 Y53.382 E5.91569
G1 X99.620 Y54.444 E6.11452
G1 X99.811 Y54.697 E6.15218
G1 X100.612 Y55.800 E6.31409
G1 X101.232 Y57.359 E6.51335
G1 X101.439 Y58.997 E6.70942
G1 X101.393 Y61.742 E7.03543
G1 X101.393 Y73.045 E8.37789
G1 X101.456 Y73.158 E8.39323
G1 X101.277 Y74.240 E8.52344
G1 X100.922 Y74.937 E8.61634
G1 X100.783 Y75.153 E8.64689
G1 X100.234 Y75.702 E8.73914
G1 X100.025 Y75.852 E8.76968
G1 X99.333 Y76.205 E8.86194
G1 X99.083 Y76.266 E8.89249
G1 X98.312 Y76.388 E8.98513
G1 X97.301 Y76.232 E9.10669
G1 X96.448 Y75.787 E9.22096
G1 X96.395 Y75.759 F7800.000
G1 E7.22096 F2400.00000
G92 E0
G1 X104.475 Y58.945 F7800.000
G1 E2.00000 F2400.00000
G1 F1800
G1 X103.322 Y58.213 E2.16221
G1 X103.051 Y58.013 E2.20223
G1 X102.116 Y57.018 E2.36443
G1 X101.911 Y56.750 E2.40446
G1 X101.178 Y55.398 E2.58711
G1 X100.761 Y53.762 E2.78757
G1 X100.772 Y52.066 E2.98911
G1 X101.113 Y50.737 E3.15204
G1 X101.218 Y50.416 E3.19207
G1 X101.876 Y49.220 E3.35427
G1 X102.065 Y48.941 E3.39430
G1 X103.000 Y47.945 E3.55649
G1 X103.259 Y47.729 E3.59652
G1 X104.412 Y46.997 E3.75872
G1 X104.720 Y46.861 E3.79874
G1 X106.019 Y46.439 E3.96094
G1 X106.353 Y46.393 E4.00097
G1 X107.724 Y46.307 E4.16407
G1 X109.393 Y46.611 E4.36556
G1 X110.932 Y47.330 E4.56735
G1 X112.241 Y48.418 E4.76944
G1 X113.227 Y49.796 E4.97075
G1 X113.733 Y51.072 E5.13373
G1 X113.835 Y51.393 E5.17376
G1 X114.006 Y52.748 E5.33596
G1 X114.017 Y53.085 E5.37599
G1 X113.845 Y54.440 E5.53818
G1 X113.762 Y54.766 E5.57821
G1 X113.259 Y56.036 E5.74041
G1 X113.089 Y56.327 E5.78043
G1 X112.286 Y57.432 E5.94263
G1 X112.043 Y57.664 E5.98266
G1 X110.990 Y58.535 E6.14486
G1 X109.454 Y59.274 E6.34736
G1 X107.787 Y59.596 E6.54893
G1 X106.092 Y59.486 E6.75067
G1 X104.531 Y58.966 E6.94604
G1 X104.475 Y58.945 F7800.000
G1 E4.94604 F2400.00000
G92 E0
G1 X98.364 Y159.658 F7800.000
G1 E2.00000 F2400.00000
G1 F1800
G1 X98.607 Y159.885 E2.03952
G1 X98.292 Y160.463 E2.11771
G1 X97.453 Y162.514 E2.38087
G1 X96.806 Y164.608 E2.64119
G1 X96.308 Y166.719 E2.89884
